; generated by PrusaSlicer 2.4.0+win64 on 2022-01-24 at 17:31:00 UTC

; 

; external perimeters extrusion width = 0.45mm
; perimeters extrusion width = 0.45mm
; infill extrusion width = 0.45mm
; solid infill extrusion width = 0.45mm
; top infill extrusion width = 0.40mm
; support material extrusion width = 0.35mm
; first layer extrusion width = 0.42mm

M73 P0 R28
M73 Q0 S28
M201 X1000 Y1000 Z200 E5000 ; sets maximum accelerations, mm/sec^2
M203 X200 Y200 Z12 E120 ; sets maximum feedrates, mm/sec
M204 P1250 R1250 T1250 ; sets acceleration (P, T) and retract acceleration (R), mm/sec^2
M205 X8.00 Y8.00 Z0.40 E4.50 ; sets the jerk limits, mm/sec
M205 S0 T0 ; sets the minimum extruding and travel feed rate, mm/sec
M107
;TYPE:Custom
M862.3 P "MK3" ; printer model check
M862.1 P0.4 ; nozzle diameter check
M115 U3.10.0 ; tell printer latest fw version
G90 ; use absolute coordinates
M83 ; extruder relative mode
M104 S240 ; set extruder temp
M140 S85 ; set bed temp
M190 S85 ; wait for bed temp
M109 S240 ; wait for extruder temp
G28 W ; home all without mesh bed level
G80 ; mesh bed leveling
G1 Z0.2 F720
G1 Y-3 F1000 ; go outside print area
G92 E0
G1 X60 E9 F1000 ; intro line
G1 X100 E12.5 F1000 ; intro line
G92 E0
M221 S95

; Don't change E values below. Excessive value can damage the printer.
M907 E430 ; set extruder motor current
G21 ; set units to millimeters
G90 ; use absolute coordinates
M83 ; use relative distances for extrusion
M900 K0.08 ; Filament gcode LA 1.5
M900 K45 ; Filament gcode LA 1.0
M107
;LAYER_CHANGE
;Z:0.2
;HEIGHT:0.2
;BEFORE_LAYER_CHANGE
G92 E0.0
;0.2


G1 E-1 F2100
G1 Z.2 F720
;AFTER_LAYER_CHANGE
;0.2
G1 Z.4
G1 X105.029 Y97.367 F10800
G1 Z.2 F720
G1 E1 F2100
M204 S800
;TYPE:Skirt/Brim
;WIDTH:0.42
G1 F1200
G1 X105.906 Y96.421 E.04044
G1 X106.799 Y95.592 E.03822
G1 X108.45 Y94.272 E.06626
G1 X109.467 Y93.569 E.03877
G1 X111.333 Y92.463 E.06801
G1 X112.451 Y91.896 E.03932
G1 X114.492 Y91.023 E.06959
G1 X115.689 Y90.599 E.03981
G1 X117.861 Y89.977 E.07085
G1 X119.113 Y89.7 E.04019
G1 X121.465 Y89.329 E.07467
G1 X125.06 Y89.124 E.11291
G1 X128.535 Y89.329 E.10913
G1 X130.981 Y89.719 E.07765
G1 X134.311 Y90.599 E.10802
G1 X136.588 Y91.46 E.07631
G1 X139.57 Y92.971 E.10483
G1 X141.55 Y94.272 E.07428
G1 X143.201 Y95.592 E.06626
G1 X144.009 Y96.338 E.03449
G1 X145.572 Y98.024 E.07209
G1 X146.776 Y99.632 E.06297
G1 X147.351 Y100.537 E.03361
G1 X148.382 Y102.529 E.07033
G1 X149.061 Y104.317 E.05999
G1 X149.356 Y105.346 E.03355
G1 X149.759 Y107.517 E.06924
G1 X149.849 Y108.544 E.03231
G1 X149.849 Y110.445 E.05961
G1 X149.582 Y112.632 E.06909
G1 X149.356 Y113.654 E.03281
G1 X148.781 Y115.492 E.06037
G1 X147.872 Y117.529 E.06994
G1 X146.419 Y119.874 E.08651
G1 X143.625 Y123.293 E.13844
G1 X142.493 Y124.055 E.04278
G1 X141.786 Y124.163 E.02243
G1 X108.214 Y124.163 E1.05262
G1 X106.907 Y123.771 E.04278
G1 X106.375 Y123.293 E.02243
G1 X103.683 Y120.007 E.1332
G1 X102.581 Y118.348 E.06243
G1 X101.674 Y116.596 E.06185
G1 X101.227 Y115.514 E.0367
G1 X100.886 Y114.516 E.03308
G1 X100.42 Y112.645 E.06045
G1 X100.241 Y111.483 E.03688
G1 X100.124 Y109.573 E.05999
G1 X100.259 Y107.373 E.06909
G1 X100.609 Y105.486 E.06018
G1 X100.928 Y104.349 E.03702
G1 X101.618 Y102.529 E.06105
G1 X102.128 Y101.471 E.0368
G1 X102.648 Y100.538 E.03351
G1 X103.761 Y98.872 E.06281
G1 X104.508 Y97.929 E.03772
G1 X104.988 Y97.411 E.02216
M204 S1000
; printing object camera_part_A.stl id:0 copy 0
;WIPE_START
G1 F8640
G1 X105.906 Y96.421 E-.31163
G1 X106.799 Y95.592 E-.28145
G1 X108.006 Y94.626 E-.35691
;WIPE_END
G1 E-.05 F2100
G1 Z.4 F720
G1 X118.715 Y121.786 F10800
G1 Z.2 F720
G1 E1 F2100
M204 S800
;TYPE:Support material
G1 F1200
G1 X108.214 Y121.786 E.32925
G1 X108.214 Y118.98 E.08798
G1 X118.715 Y118.98 E.32925
G1 X118.715 Y121.729 E.0862
M204 S1000
G1 X118.296 Y121.616 F10800
M204 S800
G1 F1200
G1 X118.296 Y119.319 E.07202
G1 X117.877 Y119.319 E.01314
G1 X117.877 Y121.447 E.0667
G1 X117.458 Y121.447 E.01314
G1 X117.458 Y119.319 E.0667
G1 X117.039 Y119.319 E.01314
G1 X117.039 Y121.447 E.0667
G1 X116.62 Y121.447 E.01314
G1 X116.62 Y119.319 E.0667
G1 X116.201 Y119.319 E.01314
G1 X116.201 Y121.447 E.0667
G1 X115.783 Y121.447 E.01314
M73 Q1 S28
G1 X115.783 Y119.319 E.0667
G1 X115.364 Y119.319 E.01314
G1 X115.364 Y121.447 E.0667
G1 X114.945 Y121.447 E.01314
M73 P1 R28
G1 X114.945 Y119.319 E.0667
G1 X114.526 Y119.319 E.01314
G1 X114.526 Y121.447 E.0667
G1 X114.107 Y121.447 E.01314
G1 X114.107 Y119.319 E.0667
G1 X113.688 Y119.319 E.01314
G1 X113.688 Y121.447 E.0667
G1 X113.269 Y121.447 E.01314
G1 X113.269 Y119.319 E.0667
G1 X112.85 Y119.319 E.01314
G1 X112.85 Y121.447 E.0667
G1 X112.431 Y121.447 E.01314
G1 X112.431 Y119.319 E.0667
G1 X112.012 Y119.319 E.01314
G1 X112.012 Y121.447 E.0667
G1 X111.593 Y121.447 E.01314
G1 X111.593 Y119.319 E.0667
G1 X111.174 Y119.319 E.01314
G1 X111.174 Y121.447 E.0667
G1 X110.755 Y121.447 E.01314
G1 X110.755 Y119.319 E.0667
G1 X110.336 Y119.319 E.01314
G1 X110.336 Y121.447 E.0667
G1 X109.917 Y121.447 E.01314
G1 X109.917 Y119.319 E.0667
G1 X109.498 Y119.319 E.01314
G1 X109.498 Y121.447 E.0667
G1 X109.079 Y121.447 E.01314
G1 X109.079 Y119.319 E.0667
G1 X108.66 Y119.319 E.01314
G1 X108.66 Y121.616 E.07202
M204 S1000
;WIPE_START
G1 F8640
G1 X108.66 Y119.319 E-.53035
G1 X109.079 Y119.319 E-.09674
G1 X109.079 Y120.718 E-.3229
;WIPE_END
G1 E-.05 F2100
G1 Z.4 F720
G1 X141.786 Y121.786 F10800
G1 Z.2 F720
G1 E1 F2100
M204 S800
G1 F1200
G1 X131.285 Y121.786 E.32925
G1 X131.285 Y118.98 E.08798
G1 X141.786 Y118.98 E.32925
G1 X141.786 Y121.729 E.0862
M204 S1000
G1 X141.34 Y121.616 F10800
M204 S800
G1 F1200
G1 X141.34 Y119.319 E.07202
G1 X140.921 Y119.319 E.01314
G1 X140.921 Y121.447 E.0667
G1 X140.502 Y121.447 E.01314
G1 X140.502 Y119.319 E.0667
G1 X140.083 Y119.319 E.01314
G1 X140.083 Y121.447 E.0667
G1 X139.664 Y121.447 E.01314
G1 X139.664 Y119.319 E.0667
G1 X139.245 Y119.319 E.01314
G1 X139.245 Y121.447 E.0667
G1 X138.826 Y121.447 E.01314
G1 X138.826 Y119.319 E.0667
G1 X138.407 Y119.319 E.01314
G1 X138.407 Y121.447 E.0667
G1 X137.988 Y121.447 E.01314
G1 X137.988 Y119.319 E.0667
G1 X137.569 Y119.319 E.01314
G1 X137.569 Y121.447 E.0667
G1 X137.15 Y121.447 E.01314
G1 X137.15 Y119.319 E.0667
G1 X136.731 Y119.319 E.01314
G1 X136.731 Y121.447 E.0667
G1 X136.312 Y121.447 E.01314
G1 X136.312 Y119.319 E.0667
G1 X135.893 Y119.319 E.01314
G1 X135.893 Y121.447 E.0667
G1 X135.474 Y121.447 E.01314
G1 X135.474 Y119.319 E.0667
G1 X135.055 Y119.319 E.01314
G1 X135.055 Y121.447 E.0667
G1 X134.636 Y121.447 E.01314
G1 X134.636 Y119.319 E.0667
G1 X134.217 Y119.319 E.01314
G1 X134.217 Y121.447 E.0667
G1 X133.799 Y121.447 E.01314
G1 X133.799 Y119.319 E.0667
G1 X133.38 Y119.319 E.01314
G1 X133.38 Y121.447 E.0667
G1 X132.961 Y121.447 E.01314
G1 X132.961 Y119.319 E.0667
G1 X132.542 Y119.319 E.01314
G1 X132.542 Y121.447 E.0667
G1 X132.123 Y121.447 E.01314
G1 X132.123 Y119.319 E.0667
G1 X131.704 Y119.319 E.01314
G1 X131.704 Y121.616 E.07202
M204 S1000
;WIPE_START
G1 F8640
G1 X131.704 Y119.319 E-.53035
G1 X132.123 Y119.319 E-.09674
G1 X132.123 Y120.718 E-.3229
;WIPE_END
G1 E-.05 F2100
G1 Z.4 F720
G1 X143.672 Y117.713 F10800
G1 Z.2 F720
G1 E1 F2100
M204 S800
;TYPE:Perimeter
G1 F1200
G1 X105.928 Y117.713 E1.18341
G1 X105.338 Y116.795 E.03421
G1 X104.912 Y116.026 E.02757
G1 X104.534 Y115.243 E.02728
G1 X104.205 Y114.446 E.02702
G1 X103.926 Y113.638 E.02679
G1 X103.697 Y112.822 E.0266
G1 X103.518 Y111.998 E.02644
G1 X103.39 Y111.168 E.02632
G1 X103.313 Y110.335 E.02623
G1 X103.287 Y109.5 E.02619
G1 X103.313 Y108.665 E.02619
G1 X103.39 Y107.832 E.02623
G1 X103.518 Y107.002 E.02632
G1 X103.697 Y106.178 E.02644
G1 X103.926 Y105.362 E.0266
G1 X104.205 Y104.554 E.02679
G1 X104.534 Y103.757 E.02702
G1 X104.912 Y102.974 E.02728
G1 X105.338 Y102.205 E.02757
G1 X105.812 Y101.452 E.02787
G1 X106.331 Y100.718 E.0282
G1 X106.896 Y100.004 E.02854
G1 X107.505 Y99.313 E.0289
G1 X108.157 Y98.645 E.02926
G1 X108.85 Y98.002 E.02962
G1 X109.582 Y97.387 E.02999
G1 X110.352 Y96.8 E.03035
G1 X111.158 Y96.244 E.03071
G1 X111.999 Y95.719 E.03106
G1 X112.872 Y95.227 E.03144
G1 X113.773 Y94.771 E.03167
G1 X114.703 Y94.349 E.03202
G1 X115.659 Y93.964 E.0323
G1 X116.637 Y93.617 E.03256
G1 X117.637 Y93.309 E.03279
G1 X118.654 Y93.04 E.033
G1 X119.688 Y92.811 E.03318
G1 X120.744 Y92.622 E.03364
G1 X121.791 Y92.477 E.03316
G1 X122.856 Y92.371 E.03356
G1 X123.927 Y92.308 E.03362
G1 X125.01 Y92.287 E.03396
G1 X126.073 Y92.308 E.03335
G1 X127.144 Y92.371 E.03362
G1 X128.209 Y92.477 E.03356
G1 X129.266 Y92.623 E.03346
G1 X130.312 Y92.811 E.03334
G1 X131.346 Y93.04 E.03319
G1 X132.363 Y93.309 E.033
G1 X133.363 Y93.617 E.03279
G1 X134.341 Y93.964 E.03256
G1 X135.297 Y94.349 E.0323
G1 X136.227 Y94.771 E.03202
G1 X137.129 Y95.228 E.03171
G1 X138.001 Y95.719 E.03139
G1 X138.842 Y96.244 E.03106
G1 X139.648 Y96.8 E.03071
G1 X140.418 Y97.387 E.03036
G1 X141.15 Y98.002 E.02999
G1 X141.843 Y98.645 E.02963
G1 X142.495 Y99.313 E.02926
G1 X143.104 Y100.004 E.0289
G1 X143.669 Y100.718 E.02854
G1 X144.188 Y101.452 E.0282
G1 X144.662 Y102.205 E.02787
G1 X145.088 Y102.974 E.02757
G1 X145.466 Y103.757 E.02728
G1 X145.795 Y104.554 E.02702
G1 X146.074 Y105.362 E.02679
G1 X146.303 Y106.178 E.0266
G1 X146.482 Y107.002 E.02644
G1 X146.61 Y107.832 E.02632
G1 X146.687 Y108.665 E.02623
G1 X146.713 Y109.5 E.02619
G1 X146.687 Y110.335 E.02619
G1 X146.61 Y111.168 E.02623
G1 X146.483 Y111.993 E.02616
G1 X146.303 Y112.822 E.0266
G1 X146.074 Y113.638 E.0266
G1 X145.795 Y114.446 E.02679
G1 X145.466 Y115.243 E.02702
G1 X145.088 Y116.026 E.02728
G1 X144.662 Y116.795 E.02757
G1 X144.188 Y117.548 E.02787
G1 X144.072 Y117.713 E.00634
G1 X143.732 Y117.713 E.01066
M204 S1000
G1 X144.267 Y118.09 F10800
M204 S800
;TYPE:External perimeter
G1 F1200
G1 X105.733 Y118.09 E1.20818
G1 X105.498 Y117.757 E.01278
G1 X105.013 Y116.987 E.02853
G1 X104.577 Y116.2 E.02823
G1 X104.19 Y115.397 E.02796
G1 X103.852 Y114.58 E.02771
G1 X103.566 Y113.751 E.02749
G1 X103.33 Y112.913 E.0273
G1 X103.147 Y112.066 E.02715
G1 X103.015 Y111.214 E.02704
G1 X102.937 Y110.358 E.02696
G1 X102.91 Y109.5 E.02692
G1 X102.937 Y108.642 E.02692
G1 X103.015 Y107.786 E.02696
G1 X103.147 Y106.934 E.02704
G1 X103.33 Y106.087 E.02715
M73 Q2 S28
G1 X103.566 Y105.249 E.0273
G1 X103.852 Y104.42 E.02749
G1 X104.19 Y103.603 E.02771
G1 X104.577 Y102.8 E.02796
G1 X105.013 Y102.013 E.02823
G1 X105.498 Y101.243 E.02853
G1 X106.029 Y100.492 E.02884
M73 P2 R28
G1 X106.607 Y99.763 E.02917
G1 X107.229 Y99.056 E.02951
G1 X107.894 Y98.375 E.02986
G1 X108.6 Y97.719 E.03021
G1 X109.346 Y97.092 E.03056
G1 X110.131 Y96.495 E.03091
G1 X110.951 Y95.929 E.03126
G1 X111.806 Y95.395 E.03159
G1 X112.694 Y94.895 E.03197
G1 X113.61 Y94.431 E.03218
G1 X114.555 Y94.002 E.03252
G1 X115.525 Y93.612 E.0328
G1 X116.519 Y93.259 E.03305
G1 X117.533 Y92.946 E.03328
G1 X118.565 Y92.674 E.03348
G1 X119.614 Y92.442 E.03366
G1 X120.685 Y92.25 E.03412
G1 X121.747 Y92.102 E.03363
G1 X122.827 Y91.995 E.03402
G1 X123.912 Y91.931 E.03409
G1 X125.01 Y91.91 E.03443
G1 X126.088 Y91.931 E.03381
G1 X127.173 Y91.995 E.03409
G1 X128.253 Y92.102 E.03402
G1 X129.325 Y92.251 E.03393
G1 X130.386 Y92.442 E.03381
G1 X131.435 Y92.674 E.03366
G1 X132.467 Y92.946 E.03348
G1 X133.481 Y93.259 E.03328
G1 X134.475 Y93.612 E.03305
G1 X135.445 Y94.002 E.0328
G1 X136.39 Y94.431 E.03252
G1 X137.307 Y94.895 E.03223
G1 X138.194 Y95.395 E.03192
G1 X139.049 Y95.929 E.0316
G1 X139.869 Y96.495 E.03126
G1 X140.654 Y97.092 E.03092
G1 X141.4 Y97.719 E.03056
G1 X142.106 Y98.375 E.03021
G1 X142.771 Y99.056 E.02986
G1 X143.393 Y99.763 E.02951
G1 X143.971 Y100.492 E.02917
G1 X144.502 Y101.243 E.02884
G1 X144.987 Y102.013 E.02853
G1 X145.423 Y102.8 E.02823
G1 X145.81 Y103.603 E.02796
G1 X146.148 Y104.42 E.02771
G1 X146.434 Y105.249 E.02749
G1 X146.67 Y106.087 E.0273
G1 X146.853 Y106.934 E.02715
G1 X146.985 Y107.786 E.02704
G1 X147.063 Y108.642 E.02696
G1 X147.09 Y109.5 E.02692
G1 X147.063 Y110.358 E.02692
G1 X146.985 Y111.214 E.02696
G1 X146.854 Y112.061 E.02688
G1 X146.67 Y112.913 E.02731
G1 X146.434 Y113.751 E.0273
G1 X146.148 Y114.58 E.02749
G1 X145.81 Y115.397 E.02771
G1 X145.423 Y116.2 E.02796
G1 X144.987 Y116.987 E.02823
G1 X144.502 Y117.757 E.02853
G1 X144.301 Y118.041 E.0109
M204 S1000
G1 X143.965 Y117.827 F10800
;WIPE_START
G1 F8640
G1 X140.187 Y118.046 E-.95
;WIPE_END
G1 E-.05 F2100
G1 Z.4 F720
G1 X143.56 Y100.763 F10800
G1 Z.2 F720
G1 E1 F2100
M204 S800
;TYPE:Solid infill
;WIDTH:0.42215
G1 F1200
G1 X141.625 Y98.828 E.08631
G1 X140.963 Y98.214 E.02845
G1 X140.241 Y97.608 E.02973
G1 X139.482 Y97.029 E.03011
G1 X138.862 Y96.602 E.02373
G1 X144.095 Y101.834 E.23333
G1 X144.418 Y102.349 E.01917
G1 X144.845 Y103.121 E.02782
G1 X137.467 Y95.743 E.32901
G1 X136.996 Y95.477 E.01706
G1 X136.326 Y95.138 E.02368
G1 X145.311 Y104.123 E.40068
G1 X145.53 Y104.654 E.01813
G1 X145.649 Y104.997 E.01145
G1 X135.323 Y94.672 E.46046
G1 X134.414 Y94.299 E.031
G1 X145.899 Y105.784 E.51217
G1 X146.085 Y106.506 E.02353
G1 X133.57 Y93.991 E.55811
G1 X132.775 Y93.732 E.02638
G1 X146.224 Y107.181 E.59975
G1 X146.321 Y107.815 E.02023
G1 X132.016 Y93.51 E.63793
G1 X131.287 Y93.317 E.02378
M73 P2 R27
G1 X146.379 Y108.409 E.67303
G1 X146.414 Y108.98 E.01803
G1 X130.598 Y93.164 E.70529
G1 X129.927 Y93.029 E.02159
G1 X146.429 Y109.531 E.73589
G1 X146.413 Y110.052 E.01642
G1 X129.273 Y92.912 E.76433
G1 X128.648 Y92.823 E.01991
G1 X146.382 Y110.558 E.79086
G1 X146.337 Y111.049 E.01555
G1 X128.032 Y92.743 E.81632
G1 X127.437 Y92.685 E.01885
M73 P3 R27
M73 Q3 S27
G1 X146.27 Y111.518 E.83986
G1 X146.196 Y111.98 E.01477
G1 X126.854 Y92.638 E.86258
G1 X126.284 Y92.604 E.018
G1 X146.101 Y112.421 E.88374
G1 X146 Y112.857 E.01409
G1 X125.728 Y92.584 E.90403
G1 X125.181 Y92.574 E.01725
G1 X145.882 Y113.275 E.92319
G1 X145.758 Y113.687 E.01357
G1 X124.648 Y92.577 E.9414
G1 X124.122 Y92.587 E.01659
G1 X145.62 Y114.086 E.95871
G1 X145.476 Y114.478 E.01317
G1 X123.608 Y92.61 E.97517
G1 X123.102 Y92.64 E.016
G1 X145.319 Y114.857 E.99076
G1 X145.157 Y115.232 E.01286
G1 X122.606 Y92.68 E1.00567
G1 X122.118 Y92.729 E.01547
G1 X144.983 Y115.594 E1.01966
G1 X144.806 Y115.953 E.01263
M73 Q4 S27
G1 X121.636 Y92.784 E1.03322
M73 P4 R27
G1 X121.165 Y92.849 E.01499
G1 X144.614 Y116.298 E1.04569
G1 X144.423 Y116.643 E.01244
G1 X120.698 Y92.918 E1.05802
G1 X120.243 Y92.999 E.01457
G1 X144.214 Y116.97 E1.06896
G1 X144.004 Y117.296 E.01224
G1 X119.788 Y93.081 E1.07987
G1 X119.347 Y93.176 E.01422
G1 X143.601 Y117.43 E1.08159
G1 X143.065 Y117.43 E.01691
G1 X118.908 Y93.273 E1.07725
G1 X118.478 Y93.379 E.01398
G1 X142.529 Y117.43 E1.07254
G1 X141.992 Y117.43 E.01691
G1 X118.054 Y93.491 E1.06754
G1 X117.632 Y93.606 E.01377
G1 X141.456 Y117.43 E1.06241
G1 X140.92 Y117.43 E.01691
M73 Q5 S27
G1 X117.222 Y93.733 E1.05677
M73 P5 R27
G1 X116.813 Y93.859 E.01352
G1 X140.383 Y117.43 E1.05113
G1 X139.847 Y117.43 E.01691
G1 X116.414 Y93.997 E1.045
G1 X116.018 Y94.137 E.01325
G1 X139.311 Y117.43 E1.03874
G1 X138.775 Y117.43 E.01691
G1 X115.627 Y94.282 E1.03227
G1 X115.244 Y94.436 E.013
G1 X138.238 Y117.43 E1.0254
G1 X137.702 Y117.43 E.01691
G1 X114.862 Y94.59 E1.01854
G1 X114.491 Y94.756 E.0128
G1 X137.166 Y117.43 E1.01115
G1 X136.629 Y117.43 E.01691
G1 X114.122 Y94.923 E1.00369
G1 X113.758 Y95.095 E.0127
G1 X136.093 Y117.43 E.99601
G1 X135.557 Y117.43 E.01691
G1 X113.402 Y95.276 E.98797
G1 X113.046 Y95.456 E.01258
M73 P6 R26
M73 Q6 S27
G1 X135.02 Y117.43 E.97993
G1 X134.484 Y117.43 E.01691
G1 X112.702 Y95.648 E.97137
G1 X112.359 Y95.841 E.01242
G1 X133.948 Y117.43 E.96276
G1 X133.411 Y117.43 E.01691
G1 X112.02 Y96.039 E.95392
G1 X111.69 Y96.245 E.01227
G1 X132.875 Y117.43 E.94473
G1 X132.339 Y117.43 E.01691
M73 Q6 S26
G1 X111.36 Y96.451 E.93554
G1 X111.041 Y96.669 E.01217
G1 X131.802 Y117.43 E.92585
G1 X131.266 Y117.43 E.01691
G1 X110.724 Y96.888 E.91609
G1 X110.411 Y97.111 E.01212
G1 X130.73 Y117.43 E.90612
G1 X130.194 Y117.43 E.01691
G1 X110.106 Y97.343 E.89578
G1 X109.802 Y97.575 E.01207
G1 X129.657 Y117.43 E.88544
G1 X129.121 Y117.43 E.01691
M73 P7 R26
M73 Q7 S26
G1 X109.509 Y97.818 E.8746
