; generated by PrusaSlicer 2.4.0+win64 on 2022-01-29 at 19:44:34 UTC

; 

; external perimeters extrusion width = 0.45mm
; perimeters extrusion width = 0.45mm
; infill extrusion width = 0.45mm
; solid infill extrusion width = 0.45mm
; top infill extrusion width = 0.40mm
; support material extrusion width = 0.35mm
; first layer extrusion width = 0.42mm

; external perimeters extrusion width = 0.45mm
; perimeters extrusion width = 0.45mm
; infill extrusion width = 0.45mm
; solid infill extrusion width = 0.45mm
; top infill extrusion width = 0.40mm
; support material extrusion width = 0.35mm
; first layer extrusion width = 0.42mm

M73 P0 R83
M73 Q0 S84
M201 X1000 Y1000 Z200 E5000 ; sets maximum accelerations, mm/sec^2
M203 X200 Y200 Z12 E120 ; sets maximum feedrates, mm/sec
M204 P1250 R1250 T1250 ; sets acceleration (P, T) and retract acceleration (R), mm/sec^2
M205 X8.00 Y8.00 Z0.40 E4.50 ; sets the jerk limits, mm/sec
M205 S0 T0 ; sets the minimum extruding and travel feed rate, mm/sec
M107
;TYPE:Custom
M862.3 P "MK3" ; printer model check
M862.1 P0.4 ; nozzle diameter check
M115 U3.10.0 ; tell printer latest fw version
G90 ; use absolute coordinates
M83 ; extruder relative mode
M104 S240 ; set extruder temp
M140 S85 ; set bed temp
M190 S85 ; wait for bed temp
M109 S240 ; wait for extruder temp
G28 W ; home all without mesh bed level
G80 ; mesh bed leveling
G1 Z0.2 F720
G1 Y-3 F1000 ; go outside print area
G92 E0
G1 X60 E9 F1000 ; intro line
G1 X100 E12.5 F1000 ; intro line
G92 E0
M221 S95

; Don't change E values below. Excessive value can damage the printer.
M907 E430 ; set extruder motor current
G21 ; set units to millimeters
G90 ; use absolute coordinates
M83 ; use relative distances for extrusion
M900 K0.08 ; Filament gcode LA 1.5
M900 K45 ; Filament gcode LA 1.0
M107
;LAYER_CHANGE
;Z:0.2
;HEIGHT:0.2
;BEFORE_LAYER_CHANGE
G92 E0.0
;0.2


G1 E-1 F2100
G1 Z.2 F720
;AFTER_LAYER_CHANGE
;0.2
G1 Z.4
G1 X97.746 Y80.949 F10800
G1 Z.2 F720
G1 E1 F2100
M204 S800
;TYPE:Skirt/Brim
;WIDTH:0.42
G1 F1200
G1 X98.866 Y79.817 E.04993
G1 X99.628 Y79.217 E.03041
G1 X101.058 Y78.306 E.05315
G1 X102.679 Y77.487 E.05695
G1 X104.49 Y76.745 E.06135
G1 X106.512 Y76.072 E.06683
G1 X108.721 Y75.475 E.07174
G1 X111.125 Y74.954 E.07713
G1 X113.71 Y74.516 E.08221
G1 X118.591 Y73.978 E.15397
G1 X121.698 Y73.807 E.09755
G1 X124.587 Y73.755 E.09059
G1 X128.919 Y73.878 E.13588
G1 X133.887 Y74.323 E.15638
G1 X137.936 Y74.963 E.12852
G1 X140.346 Y75.488 E.07735
G1 X142.501 Y76.072 E.07001
G1 X145.53 Y77.139 E.1007
G1 X148.057 Y78.364 E.08803
G1 X149.384 Y79.216 E.04945
G1 X150.147 Y79.817 E.03046
G1 X151.122 Y80.778 E.04293
G1 X151.736 Y81.579 E.03165
G1 X152.438 Y82.985 E.04926
G1 X152.644 Y83.75 E.02485
G1 X152.736 Y84.538 E.02487
G1 X152.052 Y118.511 E1.06542
G1 X151.784 Y119.707 E.03842
G1 X151.089 Y121.109 E.04908
G1 X150.086 Y122.335 E.04966
G1 X148.735 Y123.481 E.05554
G1 X146.598 Y124.779 E.07841
G1 X132.339 Y132.162 E.50345
G1 X131.246 Y132.429 E.03527
G1 X116.131 Y132.429 E.47393
G1 X115.038 Y132.162 E.03527
G1 X99.951 Y124.327 E.53303
G1 X98.521 Y123.392 E.05359
G1 X97.291 Y122.335 E.05083
G1 X96.288 Y121.109 E.04966
G1 X95.704 Y120.002 E.03925
G1 X95.39 Y118.944 E.03461
G1 X95.3 Y117.656 E.04049
G1 X96.304 Y84.183 E1.04999
G1 X96.575 Y82.985 E.03853
G1 X97.018 Y82.005 E.03372
G1 X97.712 Y80.998 E.03834
M204 S1000
; printing object camera_part_A.stl id:1 copy 0
;WIPE_START
G1 F8640
G1 X98.866 Y79.817 E-.38132
G1 X99.628 Y79.217 E-.22398
G1 X100.887 Y78.415 E-.3447
;WIPE_END
G1 E-.05 F2100
G1 Z.4 F720
G1 X118.222 Y83.783 F10800
G1 Z.2 F720
G1 E1 F2100
M204 S800
;TYPE:Support material
G1 F1200
G1 X130.792 Y83.783 E.39412
G1 X130.792 Y80.235 E.11124
G1 X136.527 Y80.235 E.17982
G1 X136.527 Y80.275 E.00125
G1 X135.808 Y80.275 E.02254
G1 X135.527 Y80.556 E.01247
G1 X135.527 Y81.954 E.04382
G1 X135.808 Y82.235 E.01247
G1 X136.527 Y82.235 E.02254
G1 X136.527 Y82.575 E.01066
G1 X135.808 Y82.575 E.02254
G1 X135.527 Y82.856 E.01247
G1 X135.527 Y84.254 E.04382
G1 X135.808 Y84.535 E.01247
G1 X136.527 Y84.535 E.02254
G1 X136.527 Y89.275 E.14862
G1 X134.308 Y89.275 E.06957
G1 X134.027 Y89.556 E.01247
G1 X134.027 Y92.922 E.10556
G1 X134.356 Y93.209 E.01369
G1 X135.902 Y92.979 E.04901
G1 X135.902 Y94.284 E.04091
G1 X113.112 Y94.284 E.71456
G1 X113.112 Y92.979 E.04091
G1 X114.658 Y93.209 E.04901
G1 X114.987 Y92.922 E.01369
G1 X114.987 Y89.556 E.10556
G1 X114.706 Y89.275 E.01247
G1 X112.487 Y89.275 E.06957
G1 X112.487 Y84.535 E.14862
G1 X113.206 Y84.535 E.02254
G1 X113.487 Y84.254 E.01247
G1 X113.487 Y82.856 E.04382
G1 X113.206 Y82.575 E.01247
G1 X112.487 Y82.575 E.02254
G1 X112.487 Y82.235 E.01066
G1 X113.206 Y82.235 E.02254
G1 X113.487 Y81.954 E.01247
G1 X113.487 Y80.556 E.04382
G1 X113.206 Y80.275 E.01247
G1 X112.487 Y80.275 E.02254
G1 X112.487 Y80.235 E.00125
G1 X118.222 Y80.235 E.17982
G1 X118.222 Y83.726 E.10947
M204 S1000
G1 X135.819 Y89.105 F10800
M204 S800
G1 F1200
G1 X135.819 Y84.874 E.13266
G1 X135.667 Y84.874 E.00476
G1 X135.4 Y84.607 E.01185
G1 X135.4 Y88.935 E.13572
G1 X134.981 Y88.935 E.01314
G1 X134.981 Y80.574 E.26216
G1 X134.562 Y80.574 E.01314
G1 X134.562 Y88.935 E.26216
G1 X134.167 Y88.935 E.01238
G1 X134.143 Y88.96 E.00107
G1 X134.143 Y80.574 E.26292
G1 X133.724 Y80.574 E.01314
G1 X133.724 Y93.944 E.41921
G1 X134.143 Y93.944 E.01314
G1 X134.143 Y93.474 E.01473
G1 X134.249 Y93.567 E.0044
G1 X134.562 Y93.524 E.00991
G1 X134.562 Y93.944 E.01319
G1 X134.981 Y93.944 E.01314
G1 X134.981 Y93.466 E.01499
G1 X135.4 Y93.403 E.01329
G1 X135.4 Y94.114 E.02231
M204 S1000
;WIPE_START
G1 F8640
G1 X135.4 Y93.403 E-.16428
G1 X134.981 Y93.466 E-.09785
G1 X134.981 Y93.944 E-.1104
G1 X134.562 Y93.944 E-.09674
G1 X134.562 Y93.524 E-.09713
G1 X134.249 Y93.567 E-.073
G1 X134.143 Y93.474 E-.03241
G1 X134.143 Y93.944 E-.10851
G1 X133.724 Y93.944 E-.09674
G1 X133.724 Y93.628 E-.07294
;WIPE_END
G1 E-.05 F2100
G1 Z.4 F720
G1 X135.4 Y82.743 F10800
G1 Z.2 F720
G1 E1 F2100
M204 S800
G1 F1200
G1 X135.4 Y82.067 E.02118
M204 S1000
G1 X133.305 Y94.114 F10800
M204 S800
G1 F1200
G1 X133.305 Y80.574 E.42453
G1 X132.886 Y80.574 E.01314
G1 X132.886 Y93.944 E.41921
G1 X132.467 Y93.944 E.01314
G1 X132.467 Y80.574 E.41921
G1 X132.048 Y80.574 E.01314
G1 X132.048 Y93.944 E.41921
G1 X131.629 Y93.944 E.01314
G1 X131.629 Y80.574 E.41921
G1 X131.21 Y80.574 E.01314
G1 X131.21 Y93.944 E.41921
G1 X130.791 Y93.944 E.01314
G1 X130.791 Y84.122 E.30797
G1 X130.372 Y84.122 E.01314
G1 X130.372 Y93.944 E.30797
G1 X129.953 Y93.944 E.01314
G1 X129.953 Y84.122 E.30797
G1 X129.534 Y84.122 E.01314
G1 X129.534 Y93.944 E.30797
G1 X129.115 Y93.944 E.01314
G1 X129.115 Y84.122 E.30797
G1 X128.697 Y84.122 E.01314
G1 X128.697 Y93.944 E.30797
G1 X128.278 Y93.944 E.01314
G1 X128.278 Y84.122 E.30797
G1 X127.859 Y84.122 E.01314
G1 X127.859 Y93.944 E.30797
G1 X127.44 Y93.944 E.01314
G1 X127.44 Y84.122 E.30797
G1 X127.021 Y84.122 E.01314
M73 Q0 S83
G1 X127.021 Y93.944 E.30797
G1 X126.602 Y93.944 E.01314
G1 X126.602 Y84.122 E.30797
G1 X126.183 Y84.122 E.01314
G1 X126.183 Y93.944 E.30797
G1 X125.764 Y93.944 E.01314
G1 X125.764 Y84.122 E.30797
G1 X125.345 Y84.122 E.01314
G1 X125.345 Y93.944 E.30797
G1 X124.926 Y93.944 E.01314
G1 X124.926 Y84.122 E.30797
G1 X124.507 Y84.122 E.01314
G1 X124.507 Y93.944 E.30797
G1 X124.088 Y93.944 E.01314
G1 X124.088 Y84.122 E.30797
G1 X123.669 Y84.122 E.01314
G1 X123.669 Y93.944 E.30797
G1 X123.25 Y93.944 E.01314
G1 X123.25 Y84.122 E.30797
G1 X122.831 Y84.122 E.01314
G1 X122.831 Y93.944 E.30797
G1 X122.412 Y93.944 E.01314
G1 X122.412 Y84.122 E.30797
G1 X121.993 Y84.122 E.01314
G1 X121.993 Y93.944 E.30797
G1 X121.574 Y93.944 E.01314
G1 X121.574 Y84.122 E.30797
G1 X121.155 Y84.122 E.01314
G1 X121.155 Y93.944 E.30797
G1 X120.736 Y93.944 E.01314
G1 X120.736 Y84.122 E.30797
G1 X120.317 Y84.122 E.01314
G1 X120.317 Y93.944 E.30797
G1 X119.898 Y93.944 E.01314
G1 X119.898 Y84.122 E.30797
G1 X119.479 Y84.122 E.01314
G1 X119.479 Y93.944 E.30797
G1 X119.06 Y93.944 E.01314
G1 X119.06 Y84.122 E.30797
G1 X118.641 Y84.122 E.01314
G1 X118.641 Y93.944 E.30797
G1 X118.222 Y93.944 E.01314
G1 X118.222 Y84.122 E.30797
G1 X117.883 Y84.122 E.01065
G1 X117.883 Y80.574 E.11124
G1 X117.803 Y80.574 E.00249
G1 X117.803 Y93.944 E.41921
G1 X117.384 Y93.944 E.01314
G1 X117.384 Y80.574 E.41921
G1 X116.965 Y80.574 E.01314
G1 X116.965 Y93.944 E.41921
G1 X116.546 Y93.944 E.01314
G1 X116.546 Y80.574 E.41921
G1 X116.127 Y80.574 E.01314
G1 X116.127 Y93.944 E.41921
G1 X115.708 Y93.944 E.01314
M73 P1 R83
M73 Q1 S83
G1 X115.708 Y80.574 E.41921
G1 X115.289 Y80.574 E.01314
G1 X115.289 Y93.944 E.41921
G1 X114.87 Y93.944 E.01314
G1 X114.87 Y93.474 E.01473
G1 X114.765 Y93.567 E.0044
G1 X114.451 Y93.524 E.00991
G1 X114.451 Y93.944 E.01319
G1 X114.032 Y93.944 E.01314
G1 X114.032 Y93.466 E.01499
G1 X113.613 Y93.403 E.01329
G1 X113.613 Y94.114 E.02231
M204 S1000
;WIPE_START
G1 F8640
G1 X113.613 Y93.403 E-.16428
G1 X114.032 Y93.466 E-.09785
G1 X114.032 Y93.944 E-.1104
G1 X114.451 Y93.944 E-.09674
G1 X114.451 Y93.524 E-.09713
G1 X114.765 Y93.567 E-.073
G1 X114.87 Y93.474 E-.03241
G1 X114.87 Y93.944 E-.10851
G1 X115.289 Y93.944 E-.09674
G1 X115.289 Y93.628 E-.07294
;WIPE_END
G1 E-.05 F2100
G1 Z.4 F720
G1 X114.87 Y89.199 F10800
G1 Z.2 F720
G1 E1 F2100
M204 S800
G1 F1200
G1 X114.87 Y80.574 E.27044
G1 X114.451 Y80.574 E.01314
G1 X114.451 Y88.935 E.26216
G1 X114.032 Y88.935 E.01314
G1 X114.032 Y80.574 E.26216
G1 X113.826 Y80.574 E.00647
G1 X113.826 Y82.094 E.04766
G1 X113.613 Y82.307 E.00943
G1 X113.613 Y82.503 E.00614
G1 X113.826 Y82.715 E.00943
G1 X113.826 Y84.394 E.05264
G1 X113.613 Y84.607 E.00943
G1 X113.613 Y88.935 E.13572
G1 X113.194 Y88.935 E.01314
G1 X113.194 Y84.704 E.13266
M204 S1000
;WIPE_START
G1 F8640
G1 X113.194 Y88.819 E-.95
;WIPE_END
G1 E-.05 F2100
G1 Z.4 F720
G1 X111.248 Y84.592 F10800
G1 Z.2 F720
G1 E1 F2100
M204 S800
;TYPE:Perimeter
G1 F1200
G1 X111.225 Y84.988 E.01242
G1 X111.219 Y90.542 E.17415
G1 X113.72 Y90.542 E.07841
G1 X113.72 Y91.79 E.03912
G1 X111.701 Y91.445 E.0642
G1 X110.543 Y91.208 E.03709
G1 X109.442 Y90.954 E.03543
G1 X108.389 Y90.684 E.03406
G1 X107.399 Y90.4 E.03231
G1 X105.815 Y89.877 E.05229
G1 X104.726 Y89.461 E.03655
G1 X103.952 Y89.125 E.02647
G1 X103.232 Y88.779 E.02505
G1 X102.57 Y88.424 E.02353
G1 X101.973 Y88.065 E.02185
G1 X101.442 Y87.7 E.0202
G1 X100.974 Y87.332 E.01866
G1 X100.57 Y86.965 E.01712
G1 X100.231 Y86.601 E.0156
G1 X99.955 Y86.244 E.01415
G1 X99.742 Y85.895 E.01281
G1 X99.588 Y85.558 E.01163
G1 X99.49 Y85.231 E.0107
G1 X99.441 Y84.912 E.0101
G1 X99.441 Y84.597 E.00989
G1 X99.49 Y84.279 E.0101
G1 X99.588 Y83.952 E.0107
G1 X99.742 Y83.614 E.01163
G1 X99.955 Y83.266 E.01281
G1 X100.231 Y82.908 E.01415
G1 X100.57 Y82.544 E.0156
G1 X100.974 Y82.177 E.01712
G1 X101.442 Y81.809 E.01866
G1 X101.972 Y81.445 E.02015
G1 X102.57 Y81.085 E.0219
G1 X103.232 Y80.731 E.02353
G1 X103.952 Y80.384 E.02505
G1 X104.728 Y80.048 E.02654
G1 X105.558 Y79.723 E.02795
G1 X106.449 Y79.411 E.02959
G1 X107.395 Y79.111 E.03114
G1 X108.389 Y78.826 E.03242
G1 X109.442 Y78.556 E.03406
G1 X110.543 Y78.302 E.03543
G1 X111.701 Y78.065 E.03709
G1 X112.914 Y77.845 E.03863
G1 X114.189 Y77.643 E.04047
G1 X115.538 Y77.46 E.0427
G1 X116.978 Y77.297 E.04544
G1 X119.352 Y77.096 E.0747
G1 X120.441 Y77.027 E.03423
G1 X122.148 Y76.958 E.05356
G1 X124.584 Y76.92 E.0764
G1 X125.931 Y76.933 E.04224
G1 X127.55 Y76.982 E.05078
G1 X128.571 Y77.027 E.03202
G1 X130.197 Y77.134 E.0511
G1 X132.178 Y77.312 E.06237
M73 P1 R82
G1 X133.475 Y77.46 E.04094
G1 X134.825 Y77.643 E.0427
G1 X136.1 Y77.845 E.04047
G1 X137.312 Y78.065 E.03863
G1 X138.471 Y78.302 E.03709
G1 X139.572 Y78.556 E.03543
G1 X140.624 Y78.826 E.03406
G1 X141.618 Y79.111 E.03242
G1 X142.565 Y79.411 E.03114
G1 X143.455 Y79.723 E.02959
G1 X144.285 Y80.048 E.02795
G1 X145.062 Y80.384 E.02654
G1 X145.782 Y80.731 E.02505
G1 X146.443 Y81.085 E.02353
G1 X147.042 Y81.445 E.0219
G1 X147.571 Y81.809 E.02015
G1 X148.039 Y82.177 E.01866
G1 X148.443 Y82.544 E.01712
G1 X148.783 Y82.908 E.0156
G1 X149.058 Y83.266 E.01415
G1 X149.271 Y83.614 E.01281
G1 X149.425 Y83.952 E.01163
G1 X149.524 Y84.279 E.0107
G1 X149.572 Y84.597 E.0101
G1 X149.572 Y84.912 E.00989
G1 X149.524 Y85.231 E.0101
G1 X149.425 Y85.558 E.0107
G1 X149.271 Y85.895 E.01163
G1 X149.058 Y86.244 E.01281
G1 X148.783 Y86.601 E.01415
G1 X148.443 Y86.965 E.0156
G1 X148.039 Y87.332 E.01712
G1 X147.571 Y87.7 E.01866
G1 X147.041 Y88.065 E.02019
G1 X146.443 Y88.424 E.02186
G1 X145.782 Y88.779 E.02353
G1 X145.062 Y89.125 E.02505
G1 X144.287 Y89.461 E.02647
G1 X143.199 Y89.877 E.03655
G1 X141.615 Y90.4 E.05229
G1 X140.624 Y90.684 E.03231
G1 X139.572 Y90.954 E.03406
G1 X138.471 Y91.208 E.03543
G1 X137.312 Y91.445 E.03709
G1 X135.294 Y91.79 E.0642
G1 X135.294 Y90.542 E.03912
G1 X137.794 Y90.542 E.07841
G1 X137.788 Y84.988 E.17415
G1 X137.759 Y84.48 E.01595
G1 X137.654 Y83.556 E.02914
G1 X137.756 Y82.655 E.02845
G1 X137.756 Y82.155 E.01566
G1 X137.655 Y81.26 E.02823
G1 X137.76 Y80.298 E.03034
G1 X137.812 Y78.973 E.04159
G1 X111.201 Y78.973 E.83436
G1 X111.254 Y80.298 E.04159
G1 X111.359 Y81.26 E.03034
G1 X111.258 Y82.155 E.02823
G1 X111.258 Y82.655 E.01566
G1 X111.36 Y83.556 E.02845
G1 X111.251 Y84.532 E.03079
M204 S1000
;WIPE_START
G1 F8640
G1 X111.225 Y84.988 E-.10528
G1 X111.221 Y88.646 E-.84472
;WIPE_END
G1 E-.05 F2100
G1 Z.4 F720
G1 X112.615 Y83.727 F10800
G1 Z.2 F720
G1 E1 F2100
M204 S800
;TYPE:External perimeter
G1 F1200
G1 X112.493 Y83.743 E.00385
G1 X111.718 Y83.743 E.0243
G1 X111.63 Y84.512 E.02425
G1 X111.602 Y84.999 E.01529
G1 X111.597 Y90.165 E.16198
G1 X114.097 Y90.165 E.07839
G1 X114.097 Y92.23 E.06475
G1 X112.85 Y92.036 E.03955
G1 X111.63 Y91.815 E.03888
G1 X110.462 Y91.576 E.03737
G1 X109.352 Y91.32 E.03572
G1 X108.29 Y91.048 E.03437
G1 X107.288 Y90.76 E.03271
G1 X105.688 Y90.233 E.0528
G1 X104.584 Y89.81 E.03708
G1 X103.795 Y89.468 E.02696
G1 X103.061 Y89.115 E.02554
G1 X102.384 Y88.752 E.02408
G1 X101.769 Y88.382 E.02251
G1 X101.219 Y88.004 E.02093
G1 X100.73 Y87.621 E.01946
G1 X100.305 Y87.234 E.01803
G1 X99.943 Y86.845 E.01665
G1 X99.644 Y86.457 E.01534
G1 X99.409 Y86.072 E.01416
G1 X99.235 Y85.691 E.01314
G1 X99.121 Y85.314 E.01235
G1 X99.064 Y84.941 E.01184
G1 X99.064 Y84.569 E.01166
G1 X99.121 Y84.195 E.01184
G1 X99.235 Y83.819 E.01235
G1 X99.409 Y83.437 E.01314
G1 X99.644 Y83.052 E.01416
G1 X99.943 Y82.664 E.01534
G1 X100.305 Y82.276 E.01665
G1 X100.73 Y81.889 E.01803
G1 X101.219 Y81.506 E.01946
G1 X101.767 Y81.128 E.02088
G1 X102.384 Y80.757 E.02256
G1 X103.061 Y80.395 E.02408
G1 X103.795 Y80.041 E.02554
G1 X104.584 Y79.699 E.02698
G1 X105.427 Y79.369 E.02837
G1 X106.329 Y79.053 E.02998
G1 X107.286 Y78.75 E.03148
G1 X108.29 Y78.462 E.03275
G1 X109.352 Y78.189 E.03437
G1 X110.462 Y77.933 E.03572
G1 X111.63 Y77.694 E.03737
G1 X112.851 Y77.473 E.03889
G1 X114.134 Y77.27 E.04074
G1 X115.492 Y77.086 E.04296
G1 X116.941 Y76.921 E.04573
G1 X119.324 Y76.72 E.07499
G1 X120.422 Y76.651 E.03448
G1 X122.137 Y76.581 E.05384
G1 X124.583 Y76.542 E.0767
G1 X125.939 Y76.556 E.04251
G1 X127.564 Y76.605 E.05098
G1 X128.591 Y76.651 E.03223
G1 X130.226 Y76.758 E.05137
G1 X132.216 Y76.937 E.06266
G1 X133.522 Y77.086 E.04121
G1 X134.88 Y77.27 E.04296
G1 X136.163 Y77.473 E.04074
G1 X137.383 Y77.694 E.03889
G1 X138.551 Y77.933 E.03737
G1 X139.661 Y78.189 E.03572
G1 X140.723 Y78.462 E.03437
G1 X141.727 Y78.75 E.03275
G1 X142.684 Y79.053 E.03148
G1 X143.586 Y79.369 E.02998
G1 X144.429 Y79.699 E.02837
G1 X145.219 Y80.041 E.02698
G1 X145.953 Y80.395 E.02554
G1 X146.63 Y80.757 E.02408
G1 X147.246 Y81.128 E.02256
G1 X147.795 Y81.506 E.02088
G1 X148.283 Y81.889 E.01946
G1 X148.709 Y82.276 E.01803
G1 X149.071 Y82.664 E.01665
G1 X149.369 Y83.052 E.01534
G1 X149.605 Y83.437 E.01416
G1 X149.779 Y83.819 E.01314
G1 X149.893 Y84.195 E.01235
G1 X149.949 Y84.569 E.01184
G1 X149.949 Y84.941 E.01166
G1 X149.893 Y85.314 E.01184
G1 X149.779 Y85.691 E.01235
G1 X149.605 Y86.072 E.01314
G1 X149.369 Y86.457 E.01416
G1 X149.071 Y86.845 E.01534
G1 X148.709 Y87.234 E.01665
G1 X148.283 Y87.621 E.01803
G1 X147.795 Y88.004 E.01946
