; generated by PrusaSlicer 2.6.0+win64 on 2023-07-25 at 17:31:48 UTC


;
;
; 

; external perimeters extrusion width = 0.45mm
; perimeters extrusion width = 0.45mm
; infill extrusion width = 0.45mm
; solid infill extrusion width = 0.45mm
; top infill extrusion width = 0.40mm
; support material extrusion width = 0.35mm
; first layer extrusion width = 0.42mm

M73 P0 R61
M73 Q0 S62
M201 X1000 Y1000 Z200 E5000 ; sets maximum accelerations, mm/sec^2
M203 X200 Y200 Z12 E120 ; sets maximum feedrates, mm / sec
M204 S1250 T1250 ; sets acceleration (S) and retract acceleration (R), mm/sec^2
M205 X8.00 Y8.00 Z0.40 E4.50 ; sets the jerk limits, mm/sec
M205 S0 T0 ; sets the minimum extruding and travel feed rate, mm/sec
;TYPE:Custom
M862.3 P "MK3" ; printer model check
M862.1 P0.4 ; nozzle diameter check
M115 U3.12.2 ; tell printer latest fw version
G90 ; use absolute coordinates
M83 ; extruder relative mode
M104 S240 ; set extruder temp
M140 S85 ; set bed temp
M190 S85 ; wait for bed temp
M109 S240 ; wait for extruder temp
G28 W ; home all without mesh bed level
G80 ; mesh bed leveling

G1 Z0.2 F720
G1 Y-3 F1000 ; go outside print area
G92 E0
G1 X60 E9 F1000 ; intro line
G1 X100 E12.5 F1000 ; intro line

G92 E0
M221 S95

; Don't change E values below. Excessive value can damage the printer.
M907 E430 ; set extruder motor current
G21 ; set units to millimeters
G90 ; use absolute coordinates
M83 ; use relative distances for extrusion
M900 K0.08 ; Filament gcode LA 1.5
M900 K45 ; Filament gcode LA 1.0
M107
;LAYER_CHANGE
;Z:0.2
;HEIGHT:0.2
;BEFORE_LAYER_CHANGE
G92 E0.0
;0.2


G1 E-1 F2100
G1 Z.2 F720
;AFTER_LAYER_CHANGE
;0.2
G1 Z.4
G1 X110.848 Y86.899 F10800
G1 Z.2 F720
G1 E1 F2100
M204 S800
;TYPE:Skirt/Brim
;WIDTH:0.42
G1 F1200
G1 X111.897 Y86.027 E.04277
G1 X112.828 Y85.837 E.02979
G1 X137.172 Y85.837 E.76329
G1 X138.479 Y86.229 E.04278
G1 X139.152 Y86.899 E.02978
G1 X152.347 Y106.77 E.74789
G1 X152.791 Y107.532 E.02765
G1 X153.095 Y108.256 E.02462
G1 X153.363 Y109.452 E.03843
G1 X153.389 Y110.237 E.02463
G1 X153.224 Y111.352 E.03534
G1 X152.791 Y112.508 E.0387
G1 X152.257 Y113.397 E.03252
G1 X151.397 Y114.412 E.04171
G1 X150.678 Y115.068 E.03052
G1 X149.477 Y115.95 E.04672
G1 X136.067 Y123.836 E.48778
G1 X134.865 Y124.163 E.03906
G1 X115.135 Y124.163 E.61862
G1 X113.933 Y123.836 E.03906
G1 X100.634 Y116.022 E.48363
G1 X99.832 Y115.469 E.03054
G1 X98.742 Y114.55 E.0447
G1 X97.6 Y113.187 E.05575
G1 X96.905 Y111.784 E.04909
G1 X96.702 Y111.021 E.02476
G1 X96.611 Y110.237 E.02475
G1 X96.637 Y109.452 E.02463
G1 X96.776 Y108.688 E.02435
G1 X97.342 Y107.279 E.04761
G1 X110.815 Y86.949 E.7647
M204 S1000
; printing object camera3_wide_part_B_with_socket.stl id:0 copy 0
;WIPE_START
G1 F8640
G1 X111.897 Y86.027 E-.32824
G1 X112.828 Y85.837 E-.2194
G1 X114.787 Y85.837 E-.45236
;WIPE_END
G1 Z.4 F720
G1 X120.79 Y91.158 F10800
G1 Z.2 F720
G1 E1 F2100
M204 S800
;TYPE:Support material interface
;WIDTH:0.35
G1 F1200
G1 X120.436 Y91.158 E.00904
G1 X120.436 Y100.386 E.23563
G1 X120.79 Y100.386 E.00904
M204 S1000
;WIPE_START
G1 F8640
G1 X120.436 Y100.386 E-.08174
G1 X120.436 Y96.409 E-.91826
;WIPE_END
G1 Z.4 F720
G1 X121.683 Y97.081 F10800
G1 Z.2 F720
G1 E1 F2100
M204 S800
G1 F1200
G1 X121.958 Y97.461 E.01198
G1 X121.958 Y100.386 E.07469
G1 X122.465 Y100.386 E.01295
G1 X122.465 Y97.991 E.06115
G1 X122.972 Y98.359 E.016
G1 X122.972 Y100.386 E.05176
G1 X123.479 Y100.386 E.01295
G1 X123.479 Y98.39 E.05097
G1 X123.643 Y98.307 E.00469
G1 X123.689 Y97.959 E.00896
G1 X123.742 Y97.77 E.00501
G1 X123.854 Y97.533 E.00669
G1 X123.986 Y97.35 E.00576
G1 X123.986 Y100.386 E.07752
G1 X124.493 Y100.386 E.01295
G1 X124.493 Y96.898 E.08906
G1 X124.544 Y96.811 E.00257
G1 X124.544 Y95.772 E.02653
G1 X125 Y95.772 E.01164
G1 X125 Y100.386 E.11781
G1 X125.507 Y100.386 E.01295
G1 X125.507 Y96.898 E.08906
G1 X125.456 Y96.811 E.00257
G1 X125.456 Y95.772 E.02653
M204 S1000
G1 X125.4 Y95.408 F10800
M204 S800
;TYPE:Support material
;WIDTH:0.42
G1 F1200
G1 X124.6 Y95.408 E.02508
G1 X124.6 Y93.828 E.04954
G1 X125.4 Y93.828 E.02508
G1 X125.4 Y95.351 E.04775
M204 S1000
G1 X125 Y95.238 F10800
M204 S800
G1 F1200
G1 X125 Y93.998 E.03888
M204 S1000
G1 X124.544 Y93.465 F10800
M204 S800
;TYPE:Support material interface
;WIDTH:0.35
G1 F1200
G1 X124.544 Y91.526 E.04951
G1 X124.493 Y91.483 E.0017
G1 X124.493 Y91.158 E.0083
G1 X125 Y91.158 E.01295
G1 X125 Y93.465 E.05891
G1 X125.456 Y93.465 E.01164
G1 X125.456 Y91.526 E.04951
G1 X125.507 Y91.483 E.0017
G1 X125.507 Y91.158 E.0083
G1 X125.861 Y91.158 E.00904
M204 S1000
G1 X125.624 Y91.383 F10800
M204 S800
G1 F1200
G1 X125.753 Y91.273 E.00433
G1 X126.014 Y91.314 E.00675
G1 X126.014 Y91.158 E.00398
G1 X126.521 Y91.158 E.01295
G1 X126.521 Y91.436 E.0071
G1 X126.708 Y91.51 E.00514
G1 X127.028 Y91.681 E.00926
G1 X127.028 Y91.158 E.01335
G1 X127.535 Y91.158 E.01295
G1 X127.535 Y92.049 E.02275
G1 X127.883 Y92.38 E.01226
G1 X128.042 Y92.579 E.0065
G1 X128.042 Y91.158 E.03628
G1 X128.396 Y91.158 E.00904
M204 S1000
;WIPE_START
G1 F8640
G1 X128.042 Y91.158 E-.08174
G1 X128.042 Y92.579 E-.32811
G1 X127.883 Y92.38 E-.05882
G1 X127.535 Y92.049 E-.1109
G1 X127.535 Y91.158 E-.20573
G1 X127.028 Y91.158 E-.11707
G1 X127.028 Y91.581 E-.09763
;WIPE_END
G1 Z.4 F720
G1 X129.564 Y91.158 F10800
G1 Z.2 F720
G1 E1 F2100
M204 S800
G1 F1200
G1 X129.564 Y100.386 E.23563
G1 X129.057 Y100.386 E.01295
G1 X129.057 Y91.158 E.23563
G1 X128.55 Y91.158 E.01295
G1 X128.55 Y93.402 E.0573
G1 X128.369 Y93.047 E.01017
M204 S1000
;WIPE_START
G1 F8640
G1 X128.55 Y93.402 E-.09201
G1 X128.55 Y91.158 E-.51815
G1 X129.057 Y91.158 E-.11707
G1 X129.057 Y92.339 E-.27277
;WIPE_END
G1 Z.4 F720
G1 X128.903 Y95.111 F10800
G1 Z.2 F720
G1 E1 F2100
M204 S800
G1 F1200
G1 X128.882 Y95.47 E.00918
G1 X128.811 Y95.896 E.01103
M204 S1000
M204 S800
G1 X128.681 Y96.328 E.01152
G1 X128.55 Y96.638 E.00859
G1 X128.55 Y100.386 E.0957
G1 X128.042 Y100.386 E.01297
G1 X128.042 Y97.461 E.07469
G1 X127.883 Y97.66 E.0065
G1 X127.535 Y97.991 E.01226
G1 X127.535 Y100.386 E.06115
G1 X127.028 Y100.386 E.01295
G1 X127.028 Y98.359 E.05176
G1 X126.827 Y98.474 E.00591
G1 X126.521 Y98.415 E.00796
G1 X126.521 Y100.386 E.05033
G1 X126.014 Y100.386 E.01295
G1 X126.014 Y97.35 E.07752
G1 X125.848 Y97.187 E.00594
G1 X125.594 Y97.021 E.00775
M204 S1000
;WIPE_START
G1 F8640
G1 X125.848 Y97.187 E-.07006
G1 X126.014 Y97.35 E-.05372
G1 X126.014 Y100.386 E-.70102
G1 X126.521 Y100.386 E-.11707
G1 X126.521 Y100.134 E-.05813
;WIPE_END
G1 Z.4 F720
G1 X121.189 Y95.896 F10800
G1 Z.2 F720
M73 Q0 S61
G1 E1 F2100
M204 S800
G1 F1200
G1 X121.319 Y96.328 E.01152
G1 X121.45 Y96.638 E.00859
G1 X121.45 Y100.386 E.0957
G1 X120.943 Y100.386 E.01295
G1 X120.943 Y91.158 E.23563
G1 X121.45 Y91.158 E.01295
G1 X121.45 Y93.402 E.0573
G1 X121.319 Y93.712 E.00859
G1 X121.189 Y94.144 E.01152
M204 S1000
M204 S800
G1 X121.118 Y94.57 E.01103
G1 X121.097 Y94.929 E.00918
M204 S1000
;WIPE_START
G1 F8640
G1 X121.118 Y94.57 E-.08304
G1 X121.189 Y94.144 E-.09972
;WIPE_END
G1 E-.81724 F2100
G1 Z.4 F720
G1 X121.683 Y92.959 F10800
G1 Z.2 F720
G1 E1 F2100
M204 S800
G1 F1200
G1 X121.958 Y92.579 E.01198
G1 X121.958 Y91.158 E.03628
G1 X122.465 Y91.158 E.01295
G1 X122.465 Y92.049 E.02275
G1 X122.972 Y91.681 E.016
G1 X122.972 Y91.158 E.01335
G1 X123.479 Y91.158 E.01295
G1 X123.479 Y91.436 E.0071
G1 X123.986 Y91.314 E.01332
G1 X123.986 Y91.158 E.00398
G1 X124.339 Y91.158 E.00901
M204 S1000
G1 X123.745 Y91.738 F10800
M204 S800
;TYPE:Support material
;WIDTH:0.42
G1 F1200
G1 X123.296 Y91.943 E.01548
G1 X122.872 Y92.223 E.01593
G1 X122.72 Y92.345 E.00611
G1 X122.285 Y92.787 E.01944
G1 X121.981 Y93.215 E.01646
G1 X121.764 Y93.651 E.01527
G1 X121.61 Y94.095 E.01473
G1 X121.511 Y94.579 E.01549
G1 X121.482 Y95.036 E.01436
G1 X121.515 Y95.493 E.01437
G1 X121.61 Y95.945 E.01448
G1 X121.753 Y96.363 E.01385
G1 X121.923 Y96.719 E.01237
G1 X122.285 Y97.253 E.02023
G1 X122.415 Y97.401 E.00618
G1 X122.736 Y97.709 E.01395
G1 X123.275 Y98.085 E.02061
G1 X123.249 Y98.099 E.00093
G1 X122.779 Y97.784 E.01774
G1 X122.38 Y97.409 E.01717
G1 X122.059 Y96.997 E.01638
G1 X121.834 Y96.608 E.01409
G1 X121.664 Y96.213 E.01348
G1 X121.536 Y95.771 E.01443
G1 X121.478 Y95.417 E.01125
G1 X121.456 Y95.022 E.0124
G1 X121.478 Y94.623 E.01253
G1 X121.545 Y94.22 E.01281
G1 X121.665 Y93.824 E.01297
G1 X121.832 Y93.434 E.0133
G1 X122.059 Y93.043 E.01418
G1 X122.353 Y92.66 E.01514
G1 X122.751 Y92.279 E.01728
G1 X123.164 Y91.99 E.0158
G1 X123.451 Y91.837 E.0102
G1 X123.711 Y91.747 E.00863
M204 S1000
;WIPE_START
G1 F8640
G1 X123.451 Y91.837 E-.06353
G1 X123.164 Y91.99 E-.0751
G1 X122.751 Y92.279 E-.11639
G1 X122.353 Y92.66 E-.12722
G1 X122.059 Y93.043 E-.11149
G1 X121.832 Y93.434 E-.1044
G1 X121.665 Y93.824 E-.09796
G1 X121.545 Y94.22 E-.09554
G1 X121.478 Y94.623 E-.09433
G1 X121.456 Y95.022 E-.09227
G1 X121.461 Y95.116 E-.02177
;WIPE_END
G1 Z.4 F720
G1 X123.022 Y90.794 F10800
G1 Z.2 F720
G1 E1 F2100
M204 S800
G1 F1200
G1 X120.022 Y90.794 E.09406
G1 X120.022 Y100.749 E.31213
G1 X129.978 Y100.749 E.31216
G1 X129.978 Y90.794 E.31213
G1 X126.978 Y90.794 E.09406
G1 X126.978 Y88.214 E.08089
G1 X137.172 Y88.214 E.31963
G1 X137.172 Y101.906 E.4293
G1 X135.64 Y101.655 E.04868
G1 X134.282 Y101.468 E.04298
G1 X132.836 Y101.301 E.04564
G1 X131.269 Y101.154 E.04935
G1 X129.466 Y101.027 E.05667
G1 X127.959 Y100.958 E.0473
G1 X126.678 Y100.917 E.04019
G1 X125 Y100.901 E.05261
G1 X123.323 Y100.917 E.05258
G1 X122.042 Y100.958 E.04019
G1 X120.534 Y101.027 E.04733
G1 X118.731 Y101.154 E.05667
G1 X117.164 Y101.301 E.04935
G1 X115.718 Y101.468 E.04564
G1 X114.36 Y101.655 E.04298
G1 X112.828 Y101.906 E.04868
G1 X112.828 Y88.214 E.4293
G1 X123.022 Y88.214 E.31963
G1 X123.022 Y90.737 E.07911
M204 S1000
;WIPE_START
G1 F8640
G1 X123.022 Y88.214 E-.58257
G1 X121.214 Y88.214 E-.41743
;WIPE_END
G1 Z.4 F720
G1 X136.731 Y101.657 F10800
G1 Z.2 F720
G1 E1 F2100
M204 S800
G1 F1200
G1 X136.731 Y88.553 E.41087
G1 X136.312 Y88.553 E.01314
G1 X136.312 Y101.419 E.4034
G1 X135.893 Y101.352 E.0133
G1 X135.893 Y88.553 E.4013
G1 X135.474 Y88.553 E.01314
G1 X135.474 Y101.289 E.39933
G1 X135.055 Y101.232 E.01326
G1 X135.055 Y88.553 E.39754
G1 X134.636 Y88.553 E.01314
G1 X134.636 Y101.174 E.39572
G1 X134.217 Y101.119 E.01325
G1 X134.217 Y88.553 E.394
G1 X133.799 Y88.553 E.01311
G1 X133.799 Y101.07 E.39246
G1 X133.38 Y101.021 E.01323
M73 P1 R61
M73 Q1 S61
G1 X133.38 Y88.553 E.39093
G1 X132.961 Y88.553 E.01314
G1 X132.961 Y100.973 E.38942
G1 X132.542 Y100.931 E.0132
G1 X132.542 Y88.553 E.3881
G1 X132.123 Y88.553 E.01314
G1 X132.123 Y100.892 E.38688
G1 X131.704 Y100.853 E.01319
G1 X131.704 Y88.553 E.38566
G1 X131.285 Y88.553 E.01314
G1 X131.285 Y100.815 E.38447
G1 X130.866 Y100.784 E.01317
G1 X130.866 Y88.553 E.38349
G1 X130.447 Y88.553 E.01314
G1 X130.447 Y100.753 E.38252
G1 X130.317 Y100.744 E.00409
G1 X130.317 Y90.455 E.3226
G1 X130.028 Y90.455 E.00906
G1 X130.028 Y88.553 E.05964
G1 X129.609 Y88.553 E.01314
G1 X129.609 Y90.455 E.05964
G1 X129.19 Y90.455 E.01314
G1 X129.19 Y88.553 E.05964
G1 X128.771 Y88.553 E.01314
G1 X128.771 Y90.455 E.05964
G1 X128.352 Y90.455 E.01314
G1 X128.352 Y88.553 E.05964
G1 X127.933 Y88.553 E.01314
G1 X127.933 Y90.455 E.05964
G1 X127.514 Y90.455 E.01314
G1 X127.514 Y88.384 E.06493
M204 S1000
;WIPE_START
G1 F8640
G1 X127.514 Y90.455 E-.4782
G1 X127.933 Y90.455 E-.09675
G1 X127.933 Y88.614 E-.42505
;WIPE_END
G1 Z.4 F720
G1 X122.486 Y90.624 F10800
G1 Z.2 F720
G1 E1 F2100
M204 S800
G1 F1200
G1 X122.486 Y88.553 E.06493
G1 X122.067 Y88.553 E.01314
G1 X122.067 Y90.455 E.05964
G1 X121.648 Y90.455 E.01314
G1 X121.648 Y88.553 E.05964
G1 X121.229 Y88.553 E.01314
G1 X121.229 Y90.455 E.05964
G1 X120.81 Y90.455 E.01314
G1 X120.81 Y88.553 E.05964
G1 X120.391 Y88.553 E.01314
G1 X120.391 Y90.455 E.05964
G1 X119.972 Y90.455 E.01314
G1 X119.972 Y88.553 E.05964
G1 X119.553 Y88.553 E.01314
G1 X119.553 Y100.753 E.38252
G1 X119.134 Y100.784 E.01317
G1 X119.134 Y88.553 E.38349
G1 X118.715 Y88.553 E.01314
G1 X118.715 Y100.815 E.38447
G1 X118.296 Y100.853 E.01319
G1 X118.296 Y88.553 E.38566
G1 X117.877 Y88.553 E.01314
G1 X117.877 Y100.892 E.38688
G1 X117.458 Y100.931 E.01319
G1 X117.458 Y88.553 E.3881
G1 X117.039 Y88.553 E.01314
G1 X117.039 Y100.973 E.38942
G1 X116.62 Y101.021 E.01322
G1 X116.62 Y88.553 E.39093
G1 X116.201 Y88.553 E.01314
G1 X116.201 Y101.07 E.39246
G1 X115.783 Y101.119 E.0132
G1 X115.783 Y88.553 E.394
G1 X115.364 Y88.553 E.01314
G1 X115.364 Y101.174 E.39572
G1 X114.945 Y101.232 E.01326
G1 X114.945 Y88.553 E.39754
G1 X114.526 Y88.553 E.01314
G1 X114.526 Y101.289 E.39933
G1 X114.107 Y101.352 E.01329
G1 X114.107 Y88.553 E.4013
G1 X113.688 Y88.553 E.01314
G1 X113.688 Y101.419 E.4034
G1 X113.269 Y101.486 E.0133
M73 P1 R60
G1 X113.269 Y88.384 E.4108
M204 S1000
;WIPE_START
G1 F8640
G1 X113.269 Y92.715 E-1
;WIPE_END
G1 Z.4 F720
G1 X126.248 Y91.736 F10800
G1 Z.2 F720
G1 E1 F2100
M204 S800
G1 F1200
G1 X126.458 Y91.797 E.00686
G1 X126.836 Y91.99 E.01331
G1 X127.249 Y92.279 E.0158
G1 X127.647 Y92.66 E.01728
G1 X127.941 Y93.043 E.01514
G1 X128.168 Y93.434 E.01418
G1 X128.335 Y93.824 E.0133
G1 X128.455 Y94.22 E.01297
G1 X128.522 Y94.623 E.01281
G1 X128.544 Y95.022 E.01253
G1 X128.522 Y95.417 E.0124
G1 X128.464 Y95.771 E.01125
G1 X128.336 Y96.213 E.01443
G1 X128.166 Y96.608 E.01348
G1 X127.941 Y96.997 E.01409
G1 X127.62 Y97.409 E.01638
G1 X127.221 Y97.784 E.01717
G1 X126.761 Y98.093 E.01737
G1 X126.723 Y98.086 E.00121
G1 X127.146 Y97.804 E.01594
G1 X127.585 Y97.401 E.01868
G1 X127.715 Y97.253 E.00618
G1 X128.077 Y96.719 E.02023
G1 X128.247 Y96.363 E.01237
G1 X128.39 Y95.945 E.01385
G1 X128.485 Y95.493 E.01448
G1 X128.518 Y95.036 E.01437
G1 X128.489 Y94.579 E.01436
G1 X128.39 Y94.095 E.01549
G1 X128.236 Y93.651 E.01473
G1 X128.019 Y93.215 E.01527
G1 X127.715 Y92.787 E.01646
G1 X127.28 Y92.345 E.01944
G1 X127.128 Y92.223 E.00611
G1 X126.704 Y91.943 E.01593
G1 X126.294 Y91.754 E.01416
M204 S1000
;WIPE_START
G1 F8640
G1 X126.704 Y91.943 E-.10424
G1 X127.128 Y92.223 E-.11732
G1 X127.28 Y92.345 E-.045
G1 X127.715 Y92.787 E-.14319
G1 X128.019 Y93.215 E-.12122
G1 X128.236 Y93.651 E-.11245
G1 X128.39 Y94.095 E-.10851
G1 X128.489 Y94.579 E-.11407
G1 X128.518 Y95.036 E-.10573
G1 X128.509 Y95.158 E-.02827
;WIPE_END
G1 Z.4 F720
G1 X137.02 Y110.34 F10800
G1 Z.2 F720
G1 E1 F2100
M204 S800
G1 F1200
G1 X136.501 Y110.34 E.01627
G1 X136.22 Y110.621 E.01246
G1 X136.22 Y112.019 E.04383
G1 X136.501 Y112.3 E.01246
G1 X137.22 Y112.3 E.02254
G1 X137.22 Y112.54 E.00753
G1 X136.501 Y112.54 E.02254
G1 X136.22 Y112.821 E.01246
G1 X136.22 Y114.219 E.04383
G1 X136.501 Y114.5 E.01246
G1 X137.02 Y114.5 E.01627
G1 X137.02 Y114.54 E.00125
G1 X130.801 Y114.54 E.19499
G1 X130.52 Y114.821 E.01246
G1 X130.52 Y118.634 E.11955
G1 X130.826 Y118.919 E.01311
G1 X132.84 Y118.739 E.0634
G1 X134.865 Y118.492 E.06396
G1 X134.865 Y121.786 E.10328
G1 X115.135 Y121.786 E.61862
G1 X115.135 Y118.492 E.10328
G1 X117.16 Y118.739 E.06396
G1 X119.174 Y118.919 E.0634
G1 X119.48 Y118.634 E.01311
G1 X119.48 Y114.821 E.11955
G1 X119.199 Y114.54 E.01246
G1 X112.98 Y114.54 E.19499
G1 X112.98 Y114.5 E.00125
G1 X113.499 Y114.5 E.01627
G1 X113.78 Y114.219 E.01246
G1 X113.78 Y112.821 E.04383
G1 X113.499 Y112.54 E.01246
G1 X112.78 Y112.54 E.02254
G1 X112.78 Y112.3 E.00753
G1 X113.499 Y112.3 E.02254
G1 X113.78 Y112.019 E.01246
G1 X113.78 Y110.621 E.04383
G1 X113.499 Y110.34 E.01246
G1 X112.98 Y110.34 E.01627
G1 X112.98 Y105.5 E.15175
G1 X137.02 Y105.5 E.75376
G1 X137.02 Y110.283 E.14997
M204 S1000
G1 X136.312 Y110.289 F10800
M204 S800
G1 F1200
G1 X136.312 Y105.839 E.13953
G1 X135.893 Y105.839 E.01314
G1 X135.881 Y114.201 E.26218
G1 X135.474 Y114.201 E.01276
G1 X135.474 Y105.839 E.26218
G1 X135.055 Y105.839 E.01314
G1 X135.055 Y114.201 E.26218
G1 X134.636 Y114.201 E.01314
G1 X134.636 Y105.839 E.26218
G1 X134.217 Y105.839 E.01314
G1 X134.217 Y114.201 E.26218
G1 X133.799 Y114.201 E.01311
G1 X133.799 Y105.839 E.26218
G1 X133.38 Y105.839 E.01314
G1 X133.38 Y114.201 E.26218
G1 X132.961 Y114.201 E.01314
G1 X132.961 Y105.839 E.26218
G1 X132.542 Y105.839 E.01314
G1 X132.542 Y114.201 E.26218
