; generated by PrusaSlicer 2.6.0+win64 on 2023-08-09 at 05:49:12 UTC


;
;
; 

; external perimeters extrusion width = 0.45mm
; perimeters extrusion width = 0.45mm
; infill extrusion width = 0.45mm
; solid infill extrusion width = 0.45mm
; top infill extrusion width = 0.40mm
; support material extrusion width = 0.35mm
; first layer extrusion width = 0.42mm

M73 P0 R38
M73 Q0 S38
M201 X1000 Y1000 Z200 E5000 ; sets maximum accelerations, mm/sec^2
M203 X200 Y200 Z12 E120 ; sets maximum feedrates, mm / sec
M204 S1250 T1250 ; sets acceleration (S) and retract acceleration (R), mm/sec^2
M205 X8.00 Y8.00 Z0.40 E4.50 ; sets the jerk limits, mm/sec
M205 S0 T0 ; sets the minimum extruding and travel feed rate, mm/sec
;TYPE:Custom
M862.3 P "MK3" ; printer model check
M862.1 P0.4 ; nozzle diameter check
M115 U3.12.2 ; tell printer latest fw version
G90 ; use absolute coordinates
M83 ; extruder relative mode
M104 S240 ; set extruder temp
M140 S85 ; set bed temp
M190 S85 ; wait for bed temp
M109 S240 ; wait for extruder temp
G28 W ; home all without mesh bed level
G80 ; mesh bed leveling

G1 Z0.2 F720
G1 Y-3 F1000 ; go outside print area
G92 E0
G1 X60 E9 F1000 ; intro line
G1 X100 E12.5 F1000 ; intro line

G92 E0
M221 S95

; Don't change E values below. Excessive value can damage the printer.
M907 E430 ; set extruder motor current
G21 ; set units to millimeters
G90 ; use absolute coordinates
M83 ; use relative distances for extrusion
M900 K0.08 ; Filament gcode LA 1.5
M900 K45 ; Filament gcode LA 1.0
M107
;LAYER_CHANGE
;Z:0.2
;HEIGHT:0.2
;BEFORE_LAYER_CHANGE
G92 E0.0
;0.2


G1 E-1 F2100
G1 Z.2 F720
;AFTER_LAYER_CHANGE
;0.2
G1 Z.4
G1 X110.881 Y97.802 F10800
G1 Z.2 F720
G1 E1 F2100
M204 S800
;TYPE:Skirt/Brim
;WIDTH:0.42
G1 F1200
G1 X117.802 Y90.881 E.30689
G1 X119.749 Y90.074 E.06608
G1 X130.251 Y90.074 E.32928
G1 X132.198 Y90.881 E.06608
G1 X139.119 Y97.802 E.30689
G1 X139.926 Y99.749 E.06608
G1 X139.926 Y110.251 E.32928
G1 X139.119 Y112.198 E.06608
G1 X132.198 Y119.119 E.30689
G1 X130.251 Y119.926 E.06608
G1 X119.749 Y119.926 E.32928
G1 X117.802 Y119.119 E.06608
G1 X110.881 Y112.198 E.30689
G1 X110.074 Y110.251 E.06608
G1 X110.074 Y99.749 E.32928
G1 X110.858 Y97.857 E.06421
M204 S1000
G1 X111.147 Y98.069 F10800
M204 S800
G1 F1200
G1 X118.069 Y91.147 E.30693
G1 X119.749 Y90.451 E.05702
G1 X130.251 Y90.451 E.32928
G1 X131.931 Y91.147 E.05702
G1 X138.853 Y98.069 E.30693
G1 X139.549 Y99.749 E.05702
G1 X139.549 Y110.251 E.32928
G1 X138.853 Y111.931 E.05702
G1 X131.931 Y118.853 E.30693
G1 X130.251 Y119.549 E.05702
G1 X119.749 Y119.549 E.32928
G1 X118.069 Y118.853 E.05702
G1 X111.147 Y111.931 E.30693
G1 X110.451 Y110.251 E.05702
G1 X110.451 Y99.749 E.32928
G1 X111.124 Y98.124 E.05515
M204 S1000
; printing object evolucean_link.stl id:0 copy 0
;WIPE_START
G1 F8640
G1 X114.179 Y95.055 E-1
;WIPE_END
G1 Z.4 F720
G1 X125.484 Y102.566 F10800
G1 Z.2 F720
G1 E1 F2100
M204 S800
;TYPE:Support material
G1 F1200
G1 X125.95 Y102.707 E.01527
G1 X126.379 Y102.936 E.01525
G1 X126.755 Y103.245 E.01526
G1 X127.064 Y103.621 E.01526
G1 X127.293 Y104.05 E.01525
G1 X127.434 Y104.516 E.01527
G1 X127.482 Y105 E.01525
G1 X127.434 Y105.484 E.01525
G1 X127.293 Y105.95 E.01527
G1 X127.064 Y106.379 E.01525
G1 X126.755 Y106.755 E.01526
G1 X126.379 Y107.064 E.01526
G1 X125.95 Y107.293 E.01525
G1 X125.484 Y107.434 E.01527
G1 X125 Y107.482 E.01525
G1 X124.516 Y107.434 E.01525
G1 X124.05 Y107.293 E.01527
G1 X123.621 Y107.064 E.01525
G1 X123.245 Y106.755 E.01526
G1 X122.936 Y106.379 E.01526
G1 X122.707 Y105.95 E.01525
G1 X122.566 Y105.484 E.01527
G1 X122.518 Y105 E.01525
G1 X122.566 Y104.516 E.01525
G1 X122.707 Y104.05 E.01527
G1 X122.936 Y103.621 E.01525
G1 X123.245 Y103.245 E.01526
G1 X123.621 Y102.936 E.01526
G1 X124.05 Y102.707 E.01525
G1 X124.516 Y102.566 E.01527
G1 X125 Y102.518 E.01525
G1 X125.428 Y102.56 E.01348
M204 S1000
G1 X127.095 Y105.96 F10800
M204 S800
G1 F1200
G1 X127.095 Y104.567 E.04368
G1 X126.978 Y104.181 E.01265
G1 X126.78 Y103.811 E.01316
G1 X126.676 Y103.684 E.00515
G1 X126.676 Y106.316 E.08252
G1 X126.514 Y106.514 E.00802
G1 X126.257 Y106.725 E.01043
G1 X126.257 Y103.275 E.10817
G1 X126.189 Y103.22 E.00274
G1 X125.838 Y103.032 E.01248
G1 X125.838 Y106.968 E.12341
G1 X125.819 Y106.978 E.00067
G1 X125.419 Y107.099 E.0131
G1 X125.419 Y102.901 E.13163
G1 X125 Y102.859 E.0132
G1 X125 Y107.141 E.13426
G1 X124.581 Y107.099 E.0132
G1 X124.581 Y102.901 E.13163
G1 X124.162 Y103.032 E.01376
G1 X124.162 Y106.968 E.12341
G1 X123.811 Y106.78 E.01248
G1 X123.743 Y106.725 E.00274
G1 X123.743 Y103.275 E.10817
G1 X123.486 Y103.486 E.01043
G1 X123.324 Y103.684 E.00802
G1 X123.324 Y106.316 E.08252
G1 X123.22 Y106.189 E.00515
G1 X123.022 Y105.819 E.01316
G1 X122.905 Y105.433 E.01265
G1 X122.905 Y104.04 E.04368
M204 S1000
;WIPE_START
G1 F8640
G1 X122.905 Y105.433 E-.32165
G1 X123.022 Y105.819 E-.09313
G1 X123.22 Y106.189 E-.0969
G1 X123.324 Y106.316 E-.0379
G1 X123.324 Y104.365 E-.45042
;WIPE_END
G1 Z.4 F720
G1 X130.251 Y95.135 F10800
G1 Z.2 F720
G1 E1 F2100
M204 S800
G1 F1200
G1 X132.558 Y95.135 E.07233
G1 X132.558 Y97.442 E.07233
G1 X134.865 Y97.442 E.07233
G1 X134.865 Y99.749 E.07233
G1 X137.172 Y99.749 E.07233
G1 X137.172 Y110.251 E.32928
G1 X134.865 Y110.251 E.07233
G1 X134.865 Y112.558 E.07233
G1 X132.558 Y112.558 E.07233
G1 X132.558 Y114.865 E.07233
G1 X130.251 Y114.865 E.07233
G1 X130.251 Y117.172 E.07233
G1 X119.749 Y117.172 E.32928
M73 Q1 S38
G1 X119.749 Y114.865 E.07233
M73 P1 R38
G1 X117.442 Y114.865 E.07233
G1 X117.442 Y112.558 E.07233
G1 X115.135 Y112.558 E.07233
G1 X115.135 Y110.251 E.07233
G1 X112.828 Y110.251 E.07233
G1 X112.828 Y99.749 E.32928
G1 X115.135 Y99.749 E.07233
G1 X115.135 Y97.442 E.07233
G1 X117.442 Y97.442 E.07233
G1 X117.442 Y95.135 E.07233
G1 X119.749 Y95.135 E.07233
G1 X119.749 Y92.828 E.07233
G1 X130.251 Y92.828 E.32928
G1 X130.251 Y95.079 E.07058
M204 S1000
G1 X124.976 Y99.465 F10800
M204 S800
G1 F1200
G1 X126.057 Y99.567 E.03404
G1 X127.096 Y99.877 E.034
G1 X128.056 Y100.385 E.03405
G1 X128.897 Y101.069 E.03399
G1 X129.589 Y101.905 E.03403
G1 X130.105 Y102.86 E.03403
G1 X130.424 Y103.897 E.03402
G1 X130.535 Y104.976 E.03401
G1 X130.433 Y106.057 E.03404
G1 X130.123 Y107.096 E.034
G1 X129.615 Y108.056 E.03405
G1 X128.931 Y108.897 E.03399
G1 X128.095 Y109.589 E.03403
G1 X127.14 Y110.105 E.03403
G1 X126.103 Y110.424 E.03402
G1 X125.024 Y110.535 E.03401
G1 X123.943 Y110.433 E.03404
G1 X122.904 Y110.123 E.034
G1 X121.944 Y109.615 E.03405
G1 X121.103 Y108.931 E.03399
G1 X120.411 Y108.095 E.03403
G1 X119.895 Y107.14 E.03403
G1 X119.576 Y106.103 E.03402
G1 X119.465 Y105.024 E.03401
G1 X119.567 Y103.943 E.03404
G1 X119.877 Y102.904 E.034
G1 X120.385 Y101.944 E.03405
G1 X121.069 Y101.103 E.03399
G1 X121.905 Y100.411 E.03403
G1 X122.86 Y99.895 E.03403
G1 X123.897 Y99.576 E.03402
G1 X124.92 Y99.47 E.03225
M204 S1000
;WIPE_START
G1 F8640
G1 X123.897 Y99.576 E-.23748
G1 X122.86 Y99.895 E-.25052
G1 X121.905 Y100.411 E-.25064
G1 X121.069 Y101.103 E-.25059
G1 X121.04 Y101.139 E-.01077
;WIPE_END
G1 Z.4 F720
G1 X136.731 Y110.081 F10800
G1 Z.2 F720
G1 E1 F2100
M204 S800
G1 F1200
G1 X136.731 Y100.089 E.31329
G1 X136.312 Y100.089 E.01314
G1 X136.312 Y109.911 E.30796
G1 X135.893 Y109.911 E.01314
G1 X135.893 Y100.089 E.30796
G1 X135.474 Y100.089 E.01314
G1 X135.474 Y109.911 E.30796
G1 X135.055 Y109.911 E.01314
G1 X135.055 Y100.089 E.30796
G1 X134.636 Y100.089 E.01314
G1 X134.636 Y109.911 E.30796
G1 X134.525 Y109.911 E.00348
G1 X134.525 Y112.218 E.07233
G1 X134.217 Y112.218 E.00966
G1 X134.217 Y97.782 E.45263
G1 X133.799 Y97.782 E.01311
G1 X133.799 Y112.218 E.45263
G1 X133.38 Y112.218 E.01314
G1 X133.38 Y97.782 E.45263
G1 X132.961 Y97.782 E.01314
M73 P1 R37
G1 X132.961 Y112.218 E.45263
G1 X132.542 Y112.218 E.01314
G1 X132.542 Y97.782 E.45263
G1 X132.218 Y97.782 E.01016
G1 X132.218 Y95.475 E.07233
G1 X132.123 Y95.475 E.00298
G1 X132.123 Y114.525 E.5973
G1 X131.704 Y114.525 E.01314
G1 X131.704 Y95.475 E.5973
G1 X131.285 Y95.475 E.01314
G1 X131.285 Y114.525 E.5973
G1 X130.866 Y114.525 E.01314
G1 X130.866 Y95.475 E.5973
G1 X130.447 Y95.475 E.01314
G1 X130.447 Y102.802 E.22973
G1 X130.028 Y101.996 E.02848
G1 X130.028 Y95.475 E.20446
G1 X129.911 Y95.475 E.00367
G1 X129.911 Y93.168 E.07233
G1 X129.609 Y93.168 E.00947
G1 X129.609 Y101.394 E.25792
G1 X129.19 Y100.884 E.0207
G1 X129.19 Y93.168 E.24193
G1 X128.771 Y93.168 E.01314
G1 X128.771 Y100.527 E.23074
G1 X128.352 Y100.183 E.017
M73 Q1 S37
G1 X128.352 Y93.168 E.21995
G1 X127.933 Y93.168 E.01314
G1 X127.933 Y99.934 E.21214
G1 X127.514 Y99.71 E.0149
G1 X127.514 Y93.168 E.20512
G1 X127.095 Y93.168 E.01314
G1 X127.095 Y99.522 E.19923
G1 X126.676 Y99.395 E.01373
G1 X126.676 Y93.168 E.19524
G1 X126.257 Y93.168 E.01314
G1 X126.257 Y99.268 E.19126
G1 X126.107 Y99.23 E.00485
G1 X125.838 Y99.204 E.00847
G1 X125.838 Y93.168 E.18925
G1 X125.419 Y93.168 E.01314
G1 X125.419 Y99.163 E.18797
G1 X125 Y99.125 E.01319
G1 X125 Y93.168 E.18678
G1 X124.581 Y93.168 E.01314
G1 X124.581 Y99.163 E.18797
G1 X124.162 Y99.204 E.0132
G1 X124.162 Y93.168 E.18925
G1 X123.743 Y93.168 E.01314
G1 X123.743 Y99.268 E.19126
G1 X123.324 Y99.395 E.01373
M73 Q2 S37
G1 X123.324 Y93.168 E.19524
G1 X122.905 Y93.168 E.01314
M73 P2 R37
G1 X122.905 Y99.522 E.19923
G1 X122.715 Y99.588 E.00631
G1 X122.486 Y99.71 E.00814
G1 X122.486 Y93.168 E.20512
G1 X122.067 Y93.168 E.01314
G1 X122.067 Y99.934 E.21214
G1 X121.77 Y100.093 E.01056
G1 X121.648 Y100.183 E.00475
G1 X121.648 Y93.168 E.21995
G1 X121.229 Y93.168 E.01314
G1 X121.229 Y100.527 E.23074
G1 X120.81 Y100.884 E.01726
G1 X120.81 Y93.168 E.24193
G1 X120.391 Y93.168 E.01314
G1 X120.391 Y101.394 E.25792
G1 X120.138 Y101.703 E.01252
G1 X119.972 Y101.996 E.01056
G1 X119.972 Y95.475 E.20446
G1 X119.553 Y95.475 E.01314
G1 X119.553 Y103.387 E.24808
M204 S1000
;WIPE_START
G1 F8640
G1 X119.553 Y99.056 E-1
;WIPE_END
G1 Z.4 F720
G1 X130.447 Y114.695 F10800
G1 Z.2 F720
G1 E1 F2100
M204 S800
G1 F1200
G1 X130.447 Y107.198 E.23506
G1 X130.028 Y108.004 E.02848
G1 X130.028 Y114.525 E.20446
G1 X129.911 Y114.525 E.00367
G1 X129.911 Y116.832 E.07233
G1 X129.609 Y116.832 E.00947
G1 X129.609 Y108.606 E.25792
G1 X129.19 Y109.116 E.0207
G1 X129.19 Y116.832 E.24193
G1 X128.771 Y116.832 E.01314
G1 X128.771 Y109.473 E.23074
G1 X128.352 Y109.817 E.017
G1 X128.352 Y116.832 E.21995
G1 X127.933 Y116.832 E.01314
G1 X127.933 Y110.066 E.21214
G1 X127.514 Y110.29 E.0149
G1 X127.514 Y116.832 E.20512
G1 X127.095 Y116.832 E.01314
G1 X127.095 Y110.478 E.19923
G1 X126.676 Y110.605 E.01373
G1 X126.676 Y116.832 E.19524
G1 X126.257 Y116.832 E.01314
G1 X126.257 Y110.732 E.19126
G1 X126.107 Y110.77 E.00485
G1 X125.838 Y110.796 E.00847
G1 X125.838 Y116.832 E.18925
G1 X125.419 Y116.832 E.01314
G1 X125.419 Y110.837 E.18797
G1 X125 Y110.875 E.01319
G1 X125 Y116.832 E.18678
G1 X124.581 Y116.832 E.01314
G1 X124.581 Y110.837 E.18797
G1 X124.162 Y110.796 E.0132
G1 X124.162 Y116.832 E.18925
G1 X123.743 Y116.832 E.01314
G1 X123.743 Y110.732 E.19126
G1 X123.324 Y110.605 E.01373
G1 X123.324 Y116.832 E.19524
G1 X122.905 Y116.832 E.01314
G1 X122.905 Y110.478 E.19923
G1 X122.715 Y110.412 E.00631
G1 X122.486 Y110.29 E.00814
G1 X122.486 Y116.832 E.20512
G1 X122.067 Y116.832 E.01314
G1 X122.067 Y110.066 E.21214
G1 X121.77 Y109.907 E.01056
G1 X121.648 Y109.817 E.00475
G1 X121.648 Y116.832 E.21995
G1 X121.229 Y116.832 E.01314
G1 X121.229 Y109.473 E.23074
G1 X120.81 Y109.116 E.01726
G1 X120.81 Y116.832 E.24193
G1 X120.391 Y116.832 E.01314
G1 X120.391 Y108.606 E.25792
G1 X120.138 Y108.297 E.01252
G1 X119.972 Y108.004 E.01056
G1 X119.972 Y114.525 E.20446
G1 X119.553 Y114.525 E.01314
G1 X119.553 Y106.613 E.24808
M204 S1000
G1 X119.134 Y114.695 F10800
M204 S800
G1 F1200
G1 X119.134 Y95.475 E.60263
G1 X118.715 Y95.475 E.01314
G1 X118.715 Y114.525 E.5973
G1 X118.296 Y114.525 E.01314
G1 X118.296 Y95.475 E.5973
G1 X117.877 Y95.475 E.01314
G1 X117.877 Y114.525 E.5973
G1 X117.782 Y114.525 E.00298
G1 X117.782 Y112.218 E.07233
G1 X117.458 Y112.218 E.01016
G1 X117.458 Y97.782 E.45263
G1 X117.039 Y97.782 E.01314
G1 X117.039 Y112.218 E.45263
G1 X116.62 Y112.218 E.01314
G1 X116.62 Y97.782 E.45263
G1 X116.201 Y97.782 E.01314
G1 X116.201 Y112.218 E.45263
G1 X115.783 Y112.218 E.01311
G1 X115.783 Y97.782 E.45263
G1 X115.475 Y97.782 E.00966
G1 X115.475 Y100.089 E.07233
G1 X115.364 Y100.089 E.00348
G1 X115.364 Y109.911 E.30796
G1 X114.945 Y109.911 E.01314
M73 P3 R37
M73 Q3 S37
G1 X114.945 Y100.089 E.30796
G1 X114.526 Y100.089 E.01314
G1 X114.526 Y109.911 E.30796
G1 X114.107 Y109.911 E.01314
G1 X114.107 Y100.089 E.30796
G1 X113.688 Y100.089 E.01314
G1 X113.688 Y109.911 E.30796
G1 X113.269 Y109.911 E.01314
G1 X113.269 Y99.919 E.31329
M204 S1000
;WIPE_START
G1 F8640
G1 X113.269 Y104.25 E-1
;WIPE_END
G1 Z.4 F720
G1 X126.521 Y108.939 F10800
G1 Z.2 F720
G1 E1 F2100
M204 S800
;TYPE:Perimeter
;WIDTH:0.48486
G1 F1200
G1 X125.724 Y109.16 E.03039
G1 X124.898 Y109.222 E.03044
G1 X124.076 Y109.121 E.03043
G1 X123.29 Y108.861 E.03042
G1 X122.57 Y108.454 E.03039
G1 X121.943 Y107.913 E.03043
G1 X121.433 Y107.261 E.03042
G1 X121.061 Y106.521 E.03044
G1 X120.84 Y105.724 E.03039
G1 X120.778 Y104.898 E.03044
G1 X120.879 Y104.076 E.03043
G1 X121.139 Y103.29 E.03042
G1 X121.546 Y102.57 E.03039
G1 X122.087 Y101.943 E.03043
G1 X122.739 Y101.433 E.03042
G1 X123.479 Y101.061 E.03044
G1 X124.276 Y100.84 E.03039
G1 X125.102 Y100.778 E.03044
G1 X125.924 Y100.879 E.03043
G1 X126.71 Y101.139 E.03042
G1 X127.43 Y101.546 E.03039
G1 X128.057 Y102.087 E.03043
G1 X128.567 Y102.739 E.03042
G1 X128.939 Y103.479 E.03044
G1 X129.16 Y104.276 E.03039
;WIDTH:0.486836
G1 X129.229 Y105.022 E.02765
G1 X129.222 Y105.102 E.00296
;WIDTH:0.48486
G1 X129.121 Y105.924 E.03043
G1 X128.861 Y106.71 E.03042
G1 X128.454 Y107.43 E.03039
G1 X127.913 Y108.057 E.03043
G1 X127.261 Y108.567 E.03042
G1 X126.575 Y108.912 E.02822
M204 S1000
G1 X126.64 Y109.331 F10800
M204 S800
;TYPE:External perimeter
;WIDTH:0.419999
G1 F1200
G1 X125.764 Y109.568 E.02845
G1 X124.858 Y109.629 E.02847
G1 X123.958 Y109.513 E.02845
G1 X123.097 Y109.222 E.0285
G1 X122.31 Y108.77 E.02846
G1 X121.626 Y108.173 E.02847
G1 X121.072 Y107.454 E.02846
G1 X120.669 Y106.64 E.02848
G1 X120.432 Y105.764 E.02845
G1 X120.371 Y104.858 E.02847
G1 X120.487 Y103.958 E.02845
G1 X120.778 Y103.097 E.0285
G1 X121.23 Y102.31 E.02846
G1 X121.827 Y101.626 E.02847
G1 X122.546 Y101.072 E.02846
G1 X123.36 Y100.669 E.02848
G1 X124.236 Y100.432 E.02845
G1 X125.142 Y100.371 E.02847
G1 X126.042 Y100.487 E.02845
G1 X126.903 Y100.778 E.0285
G1 X127.69 Y101.23 E.02846
G1 X128.374 Y101.827 E.02847
G1 X128.928 Y102.546 E.02846
G1 X129.331 Y103.36 E.02848
G1 X129.568 Y104.236 E.02845
G1 X129.637 Y105.062 E.02599
G1 X129.513 Y106.042 E.03097
G1 X129.222 Y106.903 E.0285
G1 X128.77 Y107.69 E.02846
G1 X128.173 Y108.374 E.02847
G1 X127.454 Y108.928 E.02846
G1 X126.694 Y109.305 E.0266
M204 S1000
G1 X126.331 Y109.078 F10800
;WIPE_START
G1 F8640
G1 X125.764 Y109.568 E-.22316
G1 X124.858 Y109.629 E-.20967
G1 X123.958 Y109.513 E-.20953
G1 X123.097 Y109.222 E-.20986
G1 X122.542 Y108.903 E-.14778
;WIPE_END
G1 Z.4 F720
G1 X123.563 Y101.508 F10800
G1 Z.2 F720
G1 E1 F2100
M204 S800
;TYPE:Perimeter
;WIDTH:0.484859
G1 F1200
G1 X124.205 Y101.302 E.02478
G1 X124.941 Y101.218 E.02722
G1 X125.68 Y101.279 E.02725
G1 X126.393 Y101.484 E.02726
G1 X127.052 Y101.823 E.02723
G1 X127.633 Y102.284 E.02725
G1 X128.112 Y102.85 E.02725
G1 X128.472 Y103.499 E.02727
G1 X128.698 Y104.205 E.02724
G1 X128.782 Y104.941 E.02722
G1 X128.721 Y105.68 E.02725
G1 X128.516 Y106.393 E.02726
G1 X128.177 Y107.052 E.02723
G1 X127.716 Y107.633 E.02725
G1 X127.15 Y108.112 E.02725
G1 X126.501 Y108.472 E.02727
G1 X125.795 Y108.698 E.02724
G1 X125.059 Y108.782 E.02722
G1 X124.32 Y108.721 E.02725
G1 X123.607 Y108.516 E.02726
G1 X122.948 Y108.177 E.02723
G1 X122.367 Y107.716 E.02725
G1 X121.888 Y107.15 E.02725
G1 X121.528 Y106.501 E.02727
G1 X121.302 Y105.795 E.02724
G1 X121.218 Y105.059 E.02722
G1 X121.279 Y104.32 E.02725
G1 X121.484 Y103.607 E.02726
G1 X121.823 Y102.948 E.02723
;WIDTH:0.486835
G1 X121.852 Y102.897 E.00217
