; generated by PrusaSlicer 2.6.0+win64 on 2023-08-09 at 07:05:55 UTC


;
;
; 

; external perimeters extrusion width = 0.45mm
; perimeters extrusion width = 0.45mm
; infill extrusion width = 0.45mm
; solid infill extrusion width = 0.45mm
; top infill extrusion width = 0.40mm
; support material extrusion width = 0.35mm
; first layer extrusion width = 0.42mm

; external perimeters extrusion width = 0.45mm
; perimeters extrusion width = 0.45mm
; infill extrusion width = 0.45mm
; solid infill extrusion width = 0.45mm
; top infill extrusion width = 0.40mm
; support material extrusion width = 0.35mm
; first layer extrusion width = 0.42mm

M73 P0 R6
M73 Q0 S6
M201 X1000 Y1000 Z200 E5000 ; sets maximum accelerations, mm/sec^2
M203 X200 Y200 Z12 E120 ; sets maximum feedrates, mm / sec
M204 S1250 T1250 ; sets acceleration (S) and retract acceleration (R), mm/sec^2
M205 X8.00 Y8.00 Z0.40 E4.50 ; sets the jerk limits, mm/sec
M205 S0 T0 ; sets the minimum extruding and travel feed rate, mm/sec
;TYPE:Custom
M862.3 P "MK3" ; printer model check
M862.1 P0.4 ; nozzle diameter check
M115 U3.12.2 ; tell printer latest fw version
G90 ; use absolute coordinates
M83 ; extruder relative mode
M104 S240 ; set extruder temp
M140 S85 ; set bed temp
M190 S85 ; wait for bed temp
M109 S240 ; wait for extruder temp
G28 W ; home all without mesh bed level
G80 ; mesh bed leveling

G1 Z0.2 F720
G1 Y-3 F1000 ; go outside print area
G92 E0
G1 X60 E9 F1000 ; intro line
G1 X100 E12.5 F1000 ; intro line

G92 E0
M221 S95

; Don't change E values below. Excessive value can damage the printer.
M907 E430 ; set extruder motor current
G21 ; set units to millimeters
G90 ; use absolute coordinates
M83 ; use relative distances for extrusion
M900 K0.08 ; Filament gcode LA 1.5
M900 K45 ; Filament gcode LA 1.0
M107
;LAYER_CHANGE
;Z:0.2
;HEIGHT:0.2
;BEFORE_LAYER_CHANGE
G92 E0.0
;0.2


G1 E-1 F2100
M73 P1 R6
M73 Q1 S6
G1 Z.2 F720
;AFTER_LAYER_CHANGE
;0.2
G1 Z.4
G1 X106.312 Y103.76 F10800
G1 Z.2 F720
G1 E1 F2100
M204 S800
;TYPE:Skirt/Brim
;WIDTH:0.42
G1 F1200
G1 X107.081 Y103.112 E.03153
G1 X108.141 Y102.404 E.03997
G1 X132.209 Y89.541 E.85565
G1 X133.387 Y89.053 E.03998
M73 P2 R6
M73 Q2 S6
G1 X134.352 Y88.774 E.0315
G1 X135.341 Y88.591 E.03154
G1 X136.77 Y88.506 E.04488
G1 X138.346 Y88.631 E.04957
G1 X140.033 Y89.053 E.05452
G1 X141.211 Y89.541 E.03998
G1 X142.702 Y90.435 E.05451
G1 X143.688 Y91.244 E.03999
G1 X144.855 Y92.532 E.0545
G1 X145.564 Y93.593 E.04001
G1 X146.307 Y95.164 E.05449
G1 X146.677 Y96.385 E.04
G1 X146.932 Y98.105 E.05452
G1 X146.932 Y99.38 E.03998
G1 X146.677 Y101.1 E.05452
G1 X146.307 Y102.32 E.03997
G1 X145.564 Y103.892 E.05452
G1 X144.855 Y104.952 E.03998
G1 X143.688 Y106.24 E.0545
G1 X142.919 Y106.888 E.03153
G1 X141.859 Y107.596 E.03997
G1 X117.791 Y120.459 E.85565
G1 X116.613 Y120.947 E.03998
G1 X115.648 Y121.226 E.0315
G1 X113.928 Y121.481 E.05452
G1 X112.653 Y121.481 E.03998
G1 X110.933 Y121.226 E.05452
M73 Q3 S6
G1 X109.713 Y120.856 E.03997
G1 X108.141 Y120.112 E.05453
G1 X107.081 Y119.404 E.03997
G1 X105.792 Y118.236 E.05454
M73 P3 R6
G1 X104.575 Y116.639 E.06296
G1 X103.693 Y114.835 E.06296
G1 X103.179 Y112.894 E.06296
G1 X103.054 Y110.89 E.06296
G1 X103.323 Y108.9 E.06296
G1 X103.974 Y107.001 E.06294
G1 X104.984 Y105.265 E.06297
G1 X106.273 Y103.805 E.06107
M204 S1000
G1 X106.554 Y104.054 F10800
M204 S800
G1 F1200
G1 X107.507 Y103.265 E.03879
G1 X108.319 Y102.736 E.03039
G1 X132.386 Y89.874 E.85561
G1 X133.496 Y89.414 E.03767
G1 X134.426 Y89.144 E.03036
G1 X135.377 Y88.967 E.03033
G1 X136.77 Y88.883 E.04376
G1 X138.273 Y89.001 E.04727
G1 X139.923 Y89.414 E.05333
G1 X141.033 Y89.874 E.03767
G1 X142.493 Y90.749 E.05337
G1 X143.421 Y91.511 E.03765
G1 X144.564 Y92.772 E.05336
G1 X145.231 Y93.77 E.03764
G1 X145.959 Y95.309 E.05338
G1 X146.307 Y96.458 E.03764
G1 X146.557 Y98.142 E.05338
G1 X146.557 Y99.343 E.03766
G1 X146.307 Y101.026 E.05335
G1 X145.959 Y102.175 E.03764
G1 X145.231 Y103.714 E.05338
G1 X144.564 Y104.712 E.03764
G1 X143.421 Y105.973 E.05336
G1 X142.68 Y106.596 E.03035
M73 Q4 S6
G1 X141.681 Y107.264 E.03768
G1 X117.614 Y120.126 E.85561
G1 X116.504 Y120.586 E.03767
M73 P4 R6
G1 X115.154 Y120.939 E.04375
G1 X113.891 Y121.106 E.03995
G1 X112.69 Y121.106 E.03766
G1 X111.006 Y120.856 E.05338
G1 X109.857 Y120.507 E.03765
G1 X108.319 Y119.78 E.05334
G1 X107.32 Y119.112 E.03768
G1 X106.059 Y117.969 E.05336
G1 X104.889 Y116.43 E.06062
G1 X104.041 Y114.691 E.06066
G1 X103.549 Y112.821 E.06063
G1 X103.431 Y110.89 E.06066
G1 X103.693 Y108.974 E.06063
G1 X104.323 Y107.145 E.06065
G1 X105.297 Y105.475 E.06062
G1 X106.515 Y104.099 E.05762
M204 S1000
; printing object mask.stl id:0 copy 0
;WIPE_START
G1 F8640
G1 X107.507 Y103.265 E-.29925
G1 X108.319 Y102.736 E-.22377
G1 X110.141 Y101.762 E-.47698
;WIPE_END
G1 Z.4 F720
G1 X113.463 Y107.743 F10800
G1 Z.2 F720
G1 E1 F2100
M204 S800
;TYPE:Support material
G1 F1200
G1 X113.807 Y107.777 E.01084
G1 X114.146 Y107.844 E.01083
G1 X114.476 Y107.944 E.01081
G1 X114.795 Y108.076 E.01082
G1 X115.1 Y108.239 E.01084
G1 X115.387 Y108.431 E.01083
G1 X115.654 Y108.65 E.01083
G1 X115.898 Y108.894 E.01082
G1 X116.117 Y109.161 E.01083
G1 X116.309 Y109.449 E.01085
G1 X116.472 Y109.753 E.01082
G1 X116.604 Y110.072 E.01082
G1 X116.704 Y110.403 E.01084
G1 X116.772 Y110.742 E.01084
G1 X116.806 Y111.085 E.01081
G1 X116.806 Y111.431 E.01085
G1 X116.772 Y111.774 E.01081
G1 X116.704 Y112.113 E.01084
G1 X116.604 Y112.444 E.01084
G1 X116.472 Y112.763 E.01082
G1 X116.309 Y113.067 E.01082
G1 X116.117 Y113.354 E.01083
G1 X115.898 Y113.621 E.01083
G1 X115.654 Y113.866 E.01084
G1 X115.387 Y114.085 E.01083
G1 X115.1 Y114.277 E.01083
G1 X114.795 Y114.439 E.01083
G1 X114.476 Y114.572 E.01084
G1 X114.146 Y114.672 E.01081
G1 X113.807 Y114.739 E.01083
G1 X113.463 Y114.773 E.01084
G1 X113.118 Y114.773 E.01082
G1 X112.774 Y114.739 E.01084
G1 X112.435 Y114.672 E.01083
G1 X112.105 Y114.572 E.01081
G1 X111.786 Y114.439 E.01084
G1 X111.481 Y114.277 E.01083
G1 X111.194 Y114.085 E.01083
G1 X110.927 Y113.866 E.01083
G1 X110.683 Y113.621 E.01084
G1 X110.464 Y113.354 E.01083
G1 X110.272 Y113.067 E.01083
G1 X110.109 Y112.763 E.01082
G1 X109.977 Y112.444 E.01082
G1 X109.876 Y112.113 E.01085
M73 Q5 S6
G1 X109.809 Y111.774 E.01083
G1 X109.775 Y111.431 E.01081
G1 X109.775 Y111.085 E.01085
G1 X109.809 Y110.742 E.01081
G1 X109.876 Y110.403 E.01083
G1 X109.977 Y110.072 E.01085
G1 X110.109 Y109.753 E.01082
G1 X110.272 Y109.449 E.01082
G1 X110.464 Y109.161 E.01085
G1 X110.683 Y108.894 E.01083
G1 X110.927 Y108.65 E.01082
M73 P5 R6
G1 X111.194 Y108.431 E.01083
G1 X111.481 Y108.239 E.01083
G1 X111.786 Y108.076 E.01084
G1 X112.105 Y107.944 E.01082
G1 X112.435 Y107.844 E.01081
G1 X112.774 Y107.777 E.01083
G1 X113.118 Y107.743 E.01084
G1 X113.407 Y107.743 E.00906
M204 S1000
G1 X116.223 Y112.868 F10800
M204 S800
G1 F1200
G1 X116.223 Y110.04 E.08867
G1 X116.018 Y109.623 E.01457
G1 X115.804 Y109.315 E.01176
G1 X115.804 Y113.201 E.12184
G1 X115.646 Y113.393 E.0078
G1 X115.385 Y113.647 E.01142
G1 X115.385 Y108.869 E.14981
G1 X115.185 Y108.704 E.00813
G1 X114.966 Y108.558 E.00825
G1 X114.966 Y113.958 E.16931
G1 X114.547 Y114.175 E.01479
G1 X114.547 Y108.341 E.18292
G1 X114.128 Y108.193 E.01393
G1 X114.128 Y114.322 E.19217
G1 X114.063 Y114.342 E.00213
G1 X113.709 Y114.408 E.01129
G1 X113.709 Y108.108 E.19753
G1 X113.29 Y108.082 E.01316
G1 X113.29 Y114.434 E.19916
G1 X112.871 Y114.408 E.01316
G1 X112.871 Y108.108 E.19753
G1 X112.452 Y108.193 E.01341
G1 X112.452 Y114.322 E.19217
G1 X112.033 Y114.175 E.01392
G1 X112.033 Y108.341 E.18292
G1 X111.614 Y108.558 E.01479
G1 X111.614 Y113.958 E.16931
G1 X111.396 Y113.812 E.00823
M73 Q6 S6
G1 X111.196 Y113.647 E.00813
G1 X111.196 Y108.869 E.14981
M73 P6 R6
G1 X110.934 Y109.123 E.01144
G1 X110.777 Y109.315 E.00778
G1 X110.777 Y113.201 E.12184
G1 X110.563 Y112.893 E.01176
G1 X110.358 Y112.476 E.01457
G1 X110.358 Y109.648 E.08867
M204 S1000
;WIPE_START
G1 F8640
G1 X110.358 Y112.476 E-.65299
G1 X110.563 Y112.893 E-.10729
G1 X110.777 Y113.201 E-.0866
G1 X110.777 Y112.538 E-.15312
;WIPE_END
G1 Z.4 F720
G1 X107.017 Y108.912 F10800
G1 Z.2 F720
G1 E1 F2100
M204 S800
;TYPE:Perimeter
;WIDTH:0.419999
G1 F1200
G1 X107.324 Y108.219 E.02377
G1 X107.568 Y107.772 E.01597
G1 X108.031 Y107.113 E.02525
G1 X108.357 Y106.723 E.01594
G1 X108.941 Y106.167 E.02528
G1 X109.337 Y105.848 E.01594
G1 X110.018 Y105.416 E.02529
G1 X110.468 Y105.18 E.01593
G1 X111.22 Y104.89 E.02527
G1 X111.708 Y104.747 E.01594
G1 X112.502 Y104.608 E.02527
G1 X113.009 Y104.563 E.01596
G1 X113.815 Y104.582 E.02528
G1 X114.321 Y104.637 E.01596
G1 X115.107 Y104.813 E.02525
G1 X115.592 Y104.965 E.01594
G1 X116.33 Y105.291 E.0253
G1 X116.776 Y105.535 E.01594
G1 X117.435 Y105.999 E.02527
G1 X117.825 Y106.325 E.01594
G1 X118.382 Y106.908 E.02528
G1 X118.701 Y107.305 E.01597
G1 X119.132 Y107.985 E.02524
G1 X119.368 Y108.436 E.01596
G1 X119.659 Y109.188 E.02528
G1 X119.802 Y109.676 E.01594
G1 X119.94 Y110.47 E.02527
G1 X119.985 Y110.977 E.01596
G1 X119.966 Y111.782 E.02525
G1 X119.911 Y112.288 E.01596
G1 X119.735 Y113.075 E.02529
G1 X119.583 Y113.56 E.01594
G1 X119.257 Y114.297 E.02527
G1 X119.013 Y114.744 E.01597
G1 X118.55 Y115.403 E.02525
G1 X118.223 Y115.793 E.01596
G1 X117.64 Y116.349 E.02526
G1 X117.244 Y116.668 E.01594
G1 X116.563 Y117.1 E.02529
G1 X116.112 Y117.336 E.01596
G1 X115.36 Y117.626 E.02527
G1 X114.872 Y117.769 E.01594
G1 X114.078 Y117.908 E.02527
G1 X113.572 Y117.953 E.01593
G1 X112.766 Y117.934 E.02528
G1 X112.26 Y117.879 E.01596
G1 X111.474 Y117.703 E.02525
G1 X110.988 Y117.551 E.01597
G1 X110.251 Y117.225 E.02527
G1 X109.805 Y116.981 E.01594
G1 X109.146 Y116.517 E.02527
G1 X108.755 Y116.191 E.01596
G1 X108.199 Y115.607 E.02528
G1 X107.88 Y115.211 E.01594
G1 X107.448 Y114.531 E.02526
G1 X107.213 Y114.08 E.01595
G1 X106.922 Y113.328 E.02528
G1 X106.779 Y112.84 E.01594
G1 X106.641 Y112.046 E.02527
G1 X106.596 Y111.539 E.01596
G1 X106.615 Y110.734 E.02525
G1 X106.669 Y110.228 E.01596
G1 X106.845 Y109.441 E.02529
G1 X106.994 Y108.967 E.01558
M204 S1000
G1 X106.672 Y108.76 F10800
M204 S800
;TYPE:External perimeter
G1 F1200
G1 X106.991 Y108.041 E.02466
G1 X107.254 Y107.563 E.01711
G1 X107.74 Y106.874 E.02644
G1 X108.091 Y106.456 E.01711
G1 X108.702 Y105.875 E.02644
G1 X109.128 Y105.534 E.01711
G1 X109.84 Y105.083 E.02643
G1 X110.324 Y104.832 E.01709
G1 X111.111 Y104.529 E.02644
G1 X111.635 Y104.377 E.01711
G1 X112.465 Y104.233 E.02641
G1 X113.009 Y104.186 E.01712
G1 X113.852 Y104.207 E.02644
G1 X114.394 Y104.267 E.0171
G1 X115.217 Y104.452 E.02645
G1 X115.737 Y104.617 E.01711
G1 X116.507 Y104.959 E.02642
G1 X116.985 Y105.222 E.01711
G1 X117.674 Y105.707 E.02642
G1 X118.092 Y106.058 E.01711
M73 Q7 S6
G1 X118.673 Y106.669 E.02644
G1 X119.014 Y107.095 E.01711
G1 X119.465 Y107.808 E.02645
G1 X119.716 Y108.292 E.01709
M73 P7 R6
G1 X120.019 Y109.078 E.02641
G1 X120.172 Y109.602 E.01712
G1 X120.315 Y110.433 E.02644
G1 X120.362 Y110.977 E.01712
G1 X120.341 Y111.819 E.02641
G1 X120.281 Y112.362 E.01713
G1 X120.096 Y113.184 E.02642
G1 X119.932 Y113.704 E.0171
G1 X119.59 Y114.475 E.02645
G1 X119.327 Y114.953 E.01711
G1 X118.841 Y115.642 E.02644
G1 X118.49 Y116.06 E.01711
G1 X117.879 Y116.641 E.02644
G1 X117.453 Y116.982 E.01711
G1 X116.741 Y117.432 E.02641
G1 X116.257 Y117.684 E.01711
G1 X115.47 Y117.987 E.02644
G1 X114.946 Y118.139 E.01711
G1 X114.115 Y118.283 E.02644
G1 X113.572 Y118.33 E.01709
G1 X112.729 Y118.309 E.02644
G1 X112.187 Y118.249 E.0171
G1 X111.364 Y118.064 E.02645
G1 X110.844 Y117.899 E.01711
G1 X110.073 Y117.557 E.02645
G1 X109.595 Y117.294 E.01711
G1 X108.906 Y116.809 E.02642
G1 X108.489 Y116.458 E.01709
G1 X107.908 Y115.847 E.02644
G1 X107.567 Y115.421 E.01711
G1 X107.116 Y114.708 E.02645
G1 X106.864 Y114.224 E.01711
G1 X106.561 Y113.438 E.02641
G1 X106.409 Y112.914 E.01711
G1 X106.265 Y112.083 E.02644
G1 X106.218 Y111.539 E.01712
G1 X106.24 Y110.697 E.02641
G1 X106.299 Y110.154 E.01713
G1 X106.485 Y109.332 E.02642
G1 X106.648 Y108.815 E.017
M204 S1000
G1 X107.067 Y108.697 F10800
;WIPE_START
G1 F8640
G1 X106.991 Y108.041 E-.19548
G1 X107.254 Y107.563 E-.12597
G1 X107.74 Y106.874 E-.19469
G1 X108.091 Y106.456 E-.12603
G1 X108.702 Y105.875 E-.19468
G1 X109.128 Y105.534 E-.126
G1 X109.264 Y105.448 E-.03715
;WIPE_END
G1 Z.4 F720
G1 X114.459 Y106.623 F10800
G1 Z.2 F720
G1 E1 F2100
M204 S800
;TYPE:Perimeter
G1 F1200
G1 X115.386 Y106.956 E.03088
G1 X116.096 Y107.382 E.02596
G1 X116.873 Y108.086 E.03287
G1 X117.366 Y108.751 E.02596
G1 X117.814 Y109.698 E.03285
G1 X118.015 Y110.501 E.02595
G1 X118.067 Y111.548 E.03287
G1 X117.945 Y112.367 E.02596
G1 X117.592 Y113.354 E.03287
G1 X117.166 Y114.064 E.02596
G1 X116.462 Y114.84 E.03285
G1 X115.798 Y115.333 E.02593
G1 X114.85 Y115.782 E.03289
G1 X114.047 Y115.983 E.02595
G1 X113 Y116.034 E.03287
G1 X112.182 Y115.913 E.02593
G1 X111.195 Y115.559 E.03288
G1 X110.485 Y115.134 E.02595
G1 X109.743 Y114.473 E.03116
G1 X109.215 Y113.765 E.02769
G1 X108.767 Y112.818 E.03285
G1 X108.566 Y112.015 E.02595
G1 X108.514 Y110.968 E.03287
G1 X108.636 Y110.149 E.02596
G1 X108.989 Y109.162 E.03287
G1 X109.414 Y108.452 E.02595
G1 X110.118 Y107.676 E.03285
G1 X110.783 Y107.183 E.02596
G1 X111.731 Y106.734 E.03289
G1 X112.534 Y106.533 E.02595
G1 X113.581 Y106.482 E.03287
G1 X114.402 Y106.604 E.02602
M204 S1000
G1 X114.167 Y106.951 F10800
M204 S800
;TYPE:External perimeter
G1 F1200
G1 X114.344 Y106.976 E.0056
G1 X115.159 Y107.264 E.0271
G1 X115.902 Y107.705 E.02709
G1 X116.545 Y108.283 E.02711
G1 X117.063 Y108.975 E.0271
G1 X117.436 Y109.755 E.02711
G1 X117.649 Y110.593 E.02711
G1 X117.695 Y111.456 E.0271
G1 X117.572 Y112.311 E.02708
G1 X117.284 Y113.127 E.02713
G1 X116.843 Y113.87 E.02709
G1 X116.265 Y114.513 E.02711
G1 X115.573 Y115.031 E.0271
G1 X114.793 Y115.403 E.0271
G1 X113.956 Y115.617 E.02709
M73 Q8 S6
G1 X113.092 Y115.663 E.02713
M73 P8 R6
G1 X112.237 Y115.54 E.02708
G1 X111.422 Y115.252 E.0271
G1 X110.679 Y114.811 E.02709
G1 X110.023 Y114.22 E.02768
G1 X109.518 Y113.541 E.02653
G1 X109.145 Y112.761 E.02711
G1 X108.931 Y111.923 E.02712
G1 X108.885 Y111.06 E.0271
G1 X109.009 Y110.204 E.02712
G1 X109.296 Y109.389 E.02709
G1 X109.738 Y108.646 E.02711
G1 X110.316 Y108.003 E.02711
G1 X111.008 Y107.485 E.0271
G1 X111.788 Y107.113 E.0271
G1 X112.625 Y106.899 E.02709
G1 X113.488 Y106.853 E.0271
G1 X114.108 Y106.942 E.01964
M204 S1000
G1 X114.272 Y106.807 F10800
;WIPE_START
G1 F8640
G1 X114.344 Y106.976 E-.05506
G1 X115.159 Y107.264 E-.19959
G1 X115.902 Y107.705 E-.1995
G1 X116.545 Y108.283 E-.19964
G1 X117.063 Y108.975 E-.19959
G1 X117.337 Y109.548 E-.14662
;WIPE_END
G1 Z.4 F720
G1 X118.853 Y107.839 F10800
G1 Z.2 F720
G1 E1 F2100
M204 S800
;TYPE:Solid infill
;WIDTH:0.427863
G1 F1200
G1 X117.532 Y106.517 E.05982
G1 X117.081 Y106.147 E.01867
G1 X116.562 Y105.8 E.01998
G1 X115.952 Y105.481 E.02203
G1 X119.067 Y108.597 E.14103
G1 X119.282 Y109.114 E.01792
G1 X119.387 Y109.461 E.0116
G1 X115.088 Y105.162 E.1946
G1 X114.837 Y105.086 E.00839
G1 X114.375 Y104.994 E.01508
G1 X119.555 Y110.173 E.23446
G1 X119.631 Y110.794 E.02003
G1 X117.894 Y109.057 E.07863
G1 X117.688 Y108.622 E.01541
G1 X117.09 Y107.815 E.03215
G1 X116.345 Y107.14 E.03218
G1 X115.447 Y106.61 E.03338
G1 X113.755 Y104.917 E.07661
G1 X113.195 Y104.902 E.01793
G1 X114.6 Y106.307 E.0636
G1 X113.942 Y106.194 E.02137
G1 X112.68 Y104.932 E.05713
G1 X112.199 Y104.995 E.01553
G1 X113.347 Y106.143 E.05197
G1 X112.83 Y106.171 E.01657
G1 X111.744 Y105.085 E.04916
G1 X111.327 Y105.212 E.01395
G1 X112.349 Y106.233 E.04624
G1 X111.913 Y106.342 E.01439
G1 X110.928 Y105.357 E.04459
G1 X110.545 Y105.519 E.01331
G1 X111.491 Y106.464 E.0428
G1 X111.121 Y106.639 E.0131
G1 X110.191 Y105.708 E.04212
G1 X109.85 Y105.913 E.01274
G1 X110.752 Y106.814 E.04081
G1 X110.654 Y106.86 E.00347
G1 X110.424 Y107.031 E.00917
G1 X109.524 Y106.131 E.04074
G1 X109.223 Y106.374 E.01238
G1 X110.112 Y107.263 E.04024
G1 X109.807 Y107.503 E.01242
M73 Q9 S6
G1 X108.932 Y106.628 E.03961
G1 X108.66 Y106.9 E.01231
M73 P9 R6
G1 X109.548 Y107.788 E.0402
G1 X109.29 Y108.074 E.01233
G1 X108.407 Y107.191 E.03997
